%
(Bottom)
(T3  D=0.5 CR=0 - ZMIN=-0.58 - flat end mill)
N10 G90 G94
N15 G17
N20 G20
N25 G28 G91 Z0
N30 G90

(2D Contour1)
N35 M9
N40 T3 M6
N45 S3000 M3
N50 G54
N55 M8
N65 G0 X12.94 Y11.59
N70 G43 Z0.6 H3
N75 Z0.2
N80 G1 Z0.0394 F15
N85 Z-0.24
N90 G18 G3 X12.89 Z-0.29 I-0.05
N95 G1 X12.84
N100 G17 G3 X12.79 Y11.54 J-0.05
N105 G1 Y5.54 F30
N110 G2 X12.54 Y5.29 I-0.25
N115 G1 X0.54
N120 G2 X0.29 Y5.54 J0.25
N125 G1 Y11.54
N130 G2 X0.54 Y11.79 I0.25
N135 G1 X12.54
N140 G2 X12.79 Y11.54 J-0.25
N145 G3 X12.84 Y11.49 I0.05
N150 G1 X12.89
N155 G18 G2 X12.94 Z-0.24 K0.05
N160 G0 Z0.2
N165 X23.14 Y5.49
N170 G1 Z0.0394 F15
N175 Z-0.24
N180 G2 X23.19 Z-0.29 I0.05
N185 G1 X23.24
N190 G17 G3 X23.29 Y5.54 J0.05
N195 G1 Y11.54 F30
N200 G2 X23.54 Y11.79 I0.25
N205 G1 X35.54
N210 G2 X35.79 Y11.54 J-0.25
N215 G1 Y5.54
N220 G2 X35.54 Y5.29 I-0.25
N225 G1 X23.54
N230 G2 X23.29 Y5.54 J0.25
N235 G3 X23.24 Y5.59 I-0.05
N240 G1 X23.19
N245 G18 G3 X23.14 Z-0.24 K0.05
N250 G0 Z0.6
N255 G17

(2D Contour2)
N260 M8
N265 G0 X12.7372 Y11.8061
N270 Z0.6
N275 Z0.2
N280 G1 Z0.0394 F15
N285 Z-0.24
N290 X12.7374 Y11.8059 Z-0.2456
N295 X12.738 Y11.8052 Z-0.2511
N300 X12.739 Y11.804 Z-0.2565
N305 X12.7405 Y11.8024 Z-0.2617
N310 X12.7423 Y11.8004 Z-0.2666
N315 X12.7444 Y11.7979 Z-0.2712
N320 X12.7469 Y11.7951 Z-0.2754
N325 X12.7497 Y11.792 Z-0.2791
N330 X12.7527 Y11.7886 Z-0.2823
N335 X12.756 Y11.7849 Z-0.285
N340 X12.7594 Y11.781 Z-0.2872
N345 X12.763 Y11.777 Z-0.2887
N350 X12.7666 Y11.7729 Z-0.2897
N355 X12.7704 Y11.7687 Z-0.29
N360 X12.8035 Y11.7313
N365 G3 X12.8741 Y11.727 I0.0374 J0.0332
N370 G2 X13.04 Y11.79 I0.1659 J-0.187 F30
N375 G1 X23.04
N380 G2 X23.29 Y11.54 J-0.25
N385 G1 Y5.29
N390 X35.54
N395 G2 X35.79 Y5.04 J-0.25
N400 G1 Y0.54
N405 G2 X35.54 Y0.29 I-0.25
N410 G1 X0.54
N415 G2 X0.29 Y0.54 J0.25
N420 G1 Y5.04
N425 G2 X0.54 Y5.29 I0.25
N430 G1 X12.79
N435 Y11.54
N440 G2 X12.8741 Y11.727 I0.25
N445 G3 X12.8784 Y11.7976 I-0.0332 J0.0374
N450 G1 X12.8452 Y11.835
N455 X12.8415 Y11.8392 Z-0.2897
N460 X12.8378 Y11.8434 Z-0.2887
N465 X12.8342 Y11.8474 Z-0.2872
N470 X12.8308 Y11.8513 Z-0.285
N475 X12.8275 Y11.8549 Z-0.2823
N480 X12.8245 Y11.8584 Z-0.2791
N485 X12.8217 Y11.8615 Z-0.2754
N490 X12.8192 Y11.8643 Z-0.2712
N495 X12.8171 Y11.8667 Z-0.2666
N500 X12.8153 Y11.8687 Z-0.2617
N505 X12.8139 Y11.8703 Z-0.2565
N510 X12.8128 Y11.8715 Z-0.2511
N515 X12.8122 Y11.8722 Z-0.2456
N520 X12.812 Y11.8724 Z-0.24
N525 G0 Z0.6

(2D Contour3)
N535 M8
N540 X35.64 Y5.99
N545 Z0.6
N550 Z0.2394
N555 G1 Z-0.15 F15
N560 G18 G2 X35.69 Z-0.2 I0.05
N565 G1 X35.74
N570 G17 G3 X35.79 Y6.04 J0.05
N575 G1 Y11.79 F30
N580 X0.29
N585 Y0.29
N590 X35.79
N595 Y6.04
N600 G3 X35.74 Y6.09 I-0.05
N605 G1 X35.69
N610 G18 G3 X35.64 Z-0.15 K0.05
N615 G1 Y5.99
N620 Z-0.35 F15
N625 G2 X35.69 Z-0.4 I0.05
N630 G1 X35.74
N635 G17 G3 X35.79 Y6.04 J0.05
N640 G1 Y11.79 F30
N645 X0.29
N650 Y0.29
N655 X35.79
N660 Y6.04
N665 G3 X35.74 Y6.09 I-0.05
N670 G1 X35.69
N675 G18 G3 X35.64 Z-0.35 K0.05
N680 G1 Y5.99
N685 Z-0.53 F15
N690 G2 X35.69 Z-0.58 I0.05
N695 G1 X35.74
N700 G17 G3 X35.79 Y6.04 J0.05
N705 G1 Y11.79 F30
N710 X0.29
N715 Y0.29
N720 X35.79
N725 Y6.04
N730 G3 X35.74 Y6.09 I-0.05
N735 G1 X35.69
N740 G18 G3 X35.64 Z-0.53 K0.05
N745 G0 Z0.6
N750 G17
N755 M9
N760 G28 G91 Z0
N765 G28 X0 Y0
N770 M30
%
