%
(2D Contour3)
(T3  D=0.5 CR=0 - ZMIN=-0.25 - flat end mill)
N10 G90 G94
N15 G17
N20 G20
N25 G28 G91 Z0
N30 G90

(2D Contour8)
N35 M9
N40 T3 M6
N45 S3000 M3
N50 G54
N55 M8
N65 G0 X23.1 Y5.7
N70 G43 Z0.6 H3
N75 Z0.2
N80 G1 Z0.0394 F15
N85 Z-0.2
N90 G18 G2 X23.15 Z-0.25 I0.05
N95 G1 X23.2
N100 G17 G3 X23.25 Y5.75 J0.05
N105 G1 Y11.5 F30
N110 G2 X23.5 Y11.75 I0.25
N115 G1 X35.5
N120 G2 X35.75 Y11.5 J-0.25
N125 G1 Y5.5
N130 G2 X35.5 Y5.25 I-0.25
N135 G1 X23.75
N140 G2 X23.25 Y5.75 J0.5
N145 G3 X23.2 Y5.8 I-0.05
N150 G1 X23.15
N155 G18 G3 X23.1 Z-0.2 K0.05
N160 G0 Z0.2
N165 X12.9
N170 G1 Z0.0394 F15
N175 Z-0.2
N180 G3 X12.85 Z-0.25 I-0.05
N185 G1 X12.8
N190 G17 G3 X12.75 Y5.75 J-0.05
N195 G2 X12.25 Y5.25 I-0.5 F30
N200 G1 X0.5
N205 G2 X0.25 Y5.5 J0.25
N210 G1 Y11.5
N215 G2 X0.5 Y11.75 I0.25
N220 G1 X12.5
N225 G2 X12.75 Y11.5 J-0.25
N230 G1 Y5.75
N235 G3 X12.8 Y5.7 I0.05
N240 G1 X12.85
N245 G18 G2 X12.9 Z-0.2 K0.05
N250 G0 Z0.6
N255 G17

(2D Contour9)
N260 M8
N265 G0 X12.6972 Y11.7661
N270 Z0.6
N275 Z0.2
N280 G1 Z0.0394 F15
N285 Z-0.2
N290 X12.6974 Y11.7659 Z-0.2056
N295 X12.698 Y11.7652 Z-0.2111
N300 X12.699 Y11.764 Z-0.2165
N305 X12.7005 Y11.7624 Z-0.2217
N310 X12.7023 Y11.7604 Z-0.2266
N315 X12.7044 Y11.7579 Z-0.2312
N320 X12.7069 Y11.7551 Z-0.2354
N325 X12.7097 Y11.752 Z-0.2391
N330 X12.7127 Y11.7486 Z-0.2423
N335 X12.716 Y11.7449 Z-0.245
N340 X12.7194 Y11.741 Z-0.2472
N345 X12.723 Y11.737 Z-0.2487
N350 X12.7266 Y11.7329 Z-0.2497
N355 X12.7304 Y11.7287 Z-0.25
N360 X12.7635 Y11.6913
N365 G3 X12.8341 Y11.687 I0.0374 J0.0332
N370 G2 X13 Y11.75 I0.1659 J-0.187 F30
N375 G1 X23
N380 G2 X23.25 Y11.5 J-0.25
N385 G1 Y5.25
N390 X28.9375
N395 X31.625
N400 X32.625
N405 X33.375
N410 X35.5
N415 G2 X35.75 Y5 J-0.25
N420 G1 Y0.5
N425 G2 X35.5 Y0.25 I-0.25
N430 G1 X0.5
N435 G2 X0.25 Y0.5 J0.25
N440 G1 Y5
N445 G2 X0.5 Y5.25 I0.25
N450 G1 X12.75
N455 Y11.5
N460 G2 X12.8341 Y11.687 I0.25
N465 G3 X12.8384 Y11.7576 I-0.0332 J0.0374
N470 G1 X12.8052 Y11.795
N475 X12.8015 Y11.7992 Z-0.2497
N480 X12.7978 Y11.8034 Z-0.2487
N485 X12.7942 Y11.8074 Z-0.2472
N490 X12.7908 Y11.8113 Z-0.245
N495 X12.7875 Y11.8149 Z-0.2423
N500 X12.7845 Y11.8184 Z-0.2391
N505 X12.7817 Y11.8215 Z-0.2354
N510 X12.7792 Y11.8243 Z-0.2312
N515 X12.7771 Y11.8267 Z-0.2266
N520 X12.7753 Y11.8287 Z-0.2217
N525 X12.7739 Y11.8303 Z-0.2165
N530 X12.7728 Y11.8315 Z-0.2111
N535 X12.7722 Y11.8322 Z-0.2056
N540 X12.772 Y11.8324 Z-0.2
N545 G0 Z0.6
N555 M9
N560 G28 G91 Z0
N565 G28 X0 Y0
N570 M30
%
