%
(CUT_top)
(T3  D=0.5 CR=0 - ZMIN=-0.25 - flat end mill)
N10 G90 G94
N15 G17
N20 G20
N25 G28 G91 Z0
N30 G90

(2D Contour8)
N35 M9
N40 T3 M6
N45 S3000 M3
N50 G54
N55 M8
N65 G0 X27.75 Y3.5
N70 G43 Z0.6 H3
N75 Z0.2
N80 G1 Z0.0394 F15
N85 Z-0.25
N90 Y13.5 F30
N95 G2 X28 Y13.75 I0.25
N100 G1 X35.5
N105 G2 X35.75 Y13.5 J-0.25
N110 G1 Y3.5
N115 G2 X35.5 Y3.25 I-0.25
N120 G1 X28
N125 G2 X27.75 Y3.5 J0.25
N130 G0 Z0.2
N135 X8.25 Y13.5
N140 G1 Z0.0394 F15
N145 Z-0.25
N150 Y3.5 F30
N155 G2 X8 Y3.25 I-0.25
N160 G1 X0.5
N165 G2 X0.25 Y3.5 J0.25
N170 G1 Y13.5
N175 G2 X0.5 Y13.75 I0.25
N180 G1 X8
N185 G2 X8.25 Y13.5 J-0.25
N190 G0 Z0.6

(2D Contour9)
N200 M8
N205 X0.253 Y3.0384
N210 Z0.6
N215 Z0.2
N220 G1 Z0.0394 F15
N225 Z-0.25
N230 G2 X0.5 Y3.25 I0.247 J-0.0384 F30
N235 G1 X8.25
N240 Y13.5
N245 G2 X8.5 Y13.75 I0.25
N250 G1 X27.5
N255 G2 X27.75 Y13.5 J-0.25
N260 G1 Y3.25
N265 X32.625
N270 X33.375
N275 X35.5
N280 G2 X35.75 Y3 J-0.25
N285 G1 Y0.5
N290 G2 X35.5 Y0.25 I-0.25
N295 G1 X0.5
N300 G2 X0.25 Y0.5 J0.25
N305 G1 Y3
N310 G2 X0.253 Y3.0384 I0.25
N315 G0 Z0.6
N325 M9
N330 G28 G91 Z0
N335 G28 X0 Y0
N340 M30
%
