%
(CUT_top)
(T4  D=0.25 CR=0 - ZMIN=-0.5 - flat end mill)
N10 G90 G94
N15 G17
N20 G20
N25 G28 G91 Z0
N30 G90

(2D Pocket2)
N35 M9
N40 T4 M6
N45 S5000 M3
N50 G54
N55 M8
N65 G0 X2.4419 Y6.6609
N70 G43 Z0.6 H4
N75 Z0.2
N80 G1 Z0.1644 F20
N85 Z-0.125
N90 G3 X2.9397 Y6.532 I0.7954 J2.045 F40
N95 X3.7324 Y6.5636 I0.3075 J2.246
N100 X5.4811 Y8.9378 I-0.4786 J2.1836
N105 X5.1874 Y9.8731 I-2.2662 J-0.1979
N110 X4.5217 Y10.5928 I-1.905 J-1.0944
N115 X3.7873 Y10.9237 I-1.2969 J-1.8984
N120 X2.9832 Y10.9731 I-0.5335 J-2.1143
N125 X1.8802 Y10.5199 I0.282 J-2.2556
N130 X1.1649 Y9.5657 I1.3509 J-1.7579
N135 X2.186 Y6.7799 I2.0913 J-0.8135
N140 X2.4419 Y6.6609 I1.0513 J1.926
N145 G2 X2.5113 Y6.5639 I-0.0395 J-0.1016
N150 G3 X2.5848 Y6.4701 I0.1022 J0.0043
N155 X5.15 Y10.175 I0.6652 J2.2799
N160 X5.1391 Y10.1895 I-1.9013 J-1.4233
N165 X1.35 Y10.175 I-1.8891 J-1.4395
N170 X2.5848 Y6.4701 I1.9 J-1.425
N175 X2.5948 Y6.4759 I0.0022 J0.0077
N180 G1 X2.653 Y6.717
N185 G3 X2.6475 Y6.7266 I-0.0078 J0.0019
N190 G2 X1.1464 Y8.9267 I0.5987 J2.0206
N195 X1.4231 Y9.8085 I2.1386 J-0.1867
N200 X2.0505 Y10.4871 I1.7946 J-1.0299
N205 X2.7428 Y10.7993 I1.2248 J-1.7927
N210 X3.5009 Y10.8461 I0.5034 J-1.99
N215 X4.5412 Y10.419 I-0.2662 J-2.1287
N220 X5.2159 Y9.5193 I-1.2722 J-1.657
N225 X4.2527 Y6.8923 I-1.972 J-0.7671
N230 X3.5422 Y6.6587 I-0.9901 J1.8139
N235 X2.795 Y6.6886 I-0.2894 J2.1191
N240 X2.6475 Y6.7266 I0.4512 J2.0585
N245 X2.5679 Y6.824 I0.0317 J0.107
N250 G3 X2.4936 Y6.9256 I-0.1207 J-0.0104
N255 G2 X4.0064 Y10.5744 I0.7564 J1.8244
N260 X4.83 Y9.935 I-0.7564 J-1.8244
N265 X4.8373 Y9.9252 I-1.5763 J-1.1899
N270 X3.25 Y6.775 I-1.5873 J-1.1752
N275 X2.4936 Y6.9256 J1.975
N280 G3 X2.4828 Y6.9201 I-0.0031 J-0.0074
N285 G1 X2.4545 Y6.804
N290 G2 X2.4437 Y6.7985 I-0.0078 J0.0019
N295 G1 Z-0.25 F20
N300 G2 X1.1464 Y8.9267 I0.8024 J1.9487 F40
N305 X1.4231 Y9.8085 I2.1386 J-0.1867
N310 X2.0505 Y10.4871 I1.7946 J-1.0299
N315 X2.7428 Y10.7993 I1.2248 J-1.7927
N320 X3.5009 Y10.8461 I0.5034 J-1.99
N325 X4.5412 Y10.419 I-0.2662 J-2.1287
N330 X5.2159 Y9.5193 I-1.2722 J-1.657
N335 X4.2527 Y6.8923 I-1.972 J-0.7671
N340 X3.5422 Y6.6587 I-0.9901 J1.8139
N345 X2.795 Y6.6886 I-0.2894 J2.1191
N350 X2.4437 Y6.7985 I0.4512 J2.0585
N355 X2.3745 Y6.9038 I0.0426 J0.1034
N360 G3 X2.3108 Y7.0126 I-0.1214 J0.002
N365 G2 X4.1892 Y10.4874 I0.9392 J1.7374
N370 X4.83 Y9.935 I-0.9392 J-1.7374
N375 X4.8373 Y9.9252 I-1.5763 J-1.1899
N380 X3.25 Y6.775 I-1.5873 J-1.1752
N385 X2.3108 Y7.0126 J1.975
N390 G3 X2.3003 Y7.01 I-0.0038 J-0.007
N395 G1 X2.1629 Y6.8025
N400 G3 X2.1657 Y6.7911 I0.0067 J-0.0044
N405 X2.186 Y6.7799 I1.0905 J1.9611
N410 X2.9397 Y6.532 I1.0513 J1.926
N415 X3.7324 Y6.5636 I0.3075 J2.246
N420 X5.4811 Y8.9378 I-0.4786 J2.1836
N425 X5.1874 Y9.8731 I-2.2662 J-0.1979
N430 X4.5217 Y10.5928 I-1.905 J-1.0944
N435 X3.7873 Y10.9237 I-1.2969 J-1.8984
N440 X2.9832 Y10.9731 I-0.5335 J-2.1143
N445 X1.8802 Y10.5199 I0.282 J-2.2556
N450 X1.1649 Y9.5657 I1.3509 J-1.7579
N455 X2.1657 Y6.7911 I2.0913 J-0.8135
N460 G2 X2.2216 Y6.6849 I-0.0533 J-0.0959
N465 G3 X2.2821 Y6.5812 I0.1025 J-0.0097
N470 X5.15 Y10.175 I0.9679 J2.1688
N475 X5.1391 Y10.1895 I-1.9013 J-1.4233
N480 X1.35 Y10.175 I-1.8891 J-1.4395
N485 X2.2821 Y6.5812 I1.9 J-1.425
N490 X2.2933 Y6.5871 I0.0033 J0.0073
N495 G1 X2.3135 Y6.7046
N500 G2 X2.3247 Y6.7105 I0.0079 J-0.0014
N505 G1 Z-0.3 F20
N510 G3 X2.9397 Y6.532 I0.9126 J1.9955 F40
N515 X3.7324 Y6.5636 I0.3075 J2.246
N520 X5.4811 Y8.9378 I-0.4786 J2.1836
N525 X5.1874 Y9.8731 I-2.2662 J-0.1979
N530 X4.5217 Y10.5928 I-1.905 J-1.0944
N535 X3.7873 Y10.9237 I-1.2969 J-1.8984
N540 X2.9832 Y10.9731 I-0.5335 J-2.1143
N545 X1.8802 Y10.5199 I0.282 J-2.2556
N550 X1.1649 Y9.5657 I1.3509 J-1.7579
N555 X2.186 Y6.7799 I2.0913 J-0.8135
N560 X2.3247 Y6.7105 I1.0513 J1.926
N565 G2 X2.3885 Y6.6095 I-0.0454 J-0.0993
N570 G3 X2.4567 Y6.5114 I0.1024 J-0.0015
N575 X5.15 Y10.175 I0.7933 J2.2386
N580 X5.1391 Y10.1895 I-1.9013 J-1.4233
N585 X1.35 Y10.175 I-1.8891 J-1.4395
N590 X2.4567 Y6.5114 I1.9 J-1.425
N595 X2.4668 Y6.5159 I0.0027 J0.0075
N600 G1 X2.5609 Y6.7453
N605 G3 X2.5562 Y6.7559 I-0.0074 J0.003
N610 G2 X1.1464 Y8.9267 I0.6899 J1.9913
N615 X1.4231 Y9.8085 I2.1386 J-0.1867
N620 X2.0505 Y10.4871 I1.7946 J-1.0299
N625 X2.7428 Y10.7993 I1.2248 J-1.7927
N630 X3.5009 Y10.8461 I0.5034 J-1.99
N635 X4.5412 Y10.419 I-0.2662 J-2.1287
N640 X5.2159 Y9.5193 I-1.2722 J-1.657
N645 X4.2527 Y6.8923 I-1.972 J-0.7671
N650 X3.5422 Y6.6587 I-0.9901 J1.8139
N655 X2.795 Y6.6886 I-0.2894 J2.1191
N660 X2.5562 Y6.7559 I0.4512 J2.0585
N665 X2.4811 Y6.857 I0.0366 J0.1056
N670 G3 X2.4114 Y6.9619 I-0.1211 J-0.0049
N675 G2 X4.0886 Y10.5381 I0.8386 J1.7881
N680 X4.83 Y9.935 I-0.8386 J-1.7881
N685 X4.8373 Y9.9252 I-1.5763 J-1.1899
N690 X3.25 Y6.775 I-1.5873 J-1.1752
N695 X2.4114 Y6.9619 J1.975
N700 G1 X2.3913 Y6.9189 Z-0.2953
N705 G0 Z0.2
N710 X30.5954 Y9.3565
N715 G1 Z0.1644 F20
N720 Z-0.125
N725 G3 X30.5382 Y8.4056 I2.1801 J-0.6084 F40
N730 X31.0299 Y7.3167 I2.1957 J0.336
N735 X33.9384 Y6.8524 I1.7211 J1.4392
N740 X34.7447 Y7.7341 I-1.1676 J1.8772
N745 X34.9837 Y8.9047 I-2.0308 J1.0243
N750 X34.7902 Y9.6738 I-2.185 J-0.1409
N755 X34.3399 Y10.3265 I-2.0678 J-0.9448
N760 X34.0217 Y10.5928 I-1.5605 J-1.5413
N765 X33.2873 Y10.9237 I-1.2969 J-1.8984
N770 X32.4832 Y10.9731 I-0.5335 J-2.1143
N775 X31.3913 Y10.5291 I0.2825 J-2.2594
N780 X30.6755 Y9.5925 I1.3328 J-1.7603
N785 X30.5954 Y9.3565 I2.1 J-0.8444
N790 G2 X30.5044 Y9.277 I-0.1061 J0.0296
N795 G3 X30.4168 Y9.1937 I0.0142 J-0.1026
N800 X35.0832 Y8.3063 I2.3332 J-0.4437
N805 X34.65 Y10.175 I-2.3332 J0.4437
N810 X34.6427 Y10.1847 I-1.9037 J-1.4201
N815 X30.85 Y10.175 I-1.8927 J-1.4347
N820 X30.4168 Y9.1937 I1.9 J-1.425
N825 X30.4229 Y9.1844 I0.0079 J-0.0015
N830 G1 X30.6658 Y9.1286
N835 G3 X30.6754 Y9.1349 I0.0018 J0.0078
N840 G2 X31.4385 Y10.4042 I2.0761 J-0.384
N845 X32.6818 Y10.8605 I1.3209 J-1.6769
N850 X33.952 Y10.4854 I0.0757 J-2.0817
N855 X34.6725 Y9.6205 I-1.2296 J-1.7568
N860 X34.8472 Y8.5083 I-1.8978 J-0.8679
N865 X33.5242 Y6.7861 I-2.1056 J0.2481
N870 X30.6754 Y9.1349 I-0.7728 J1.9648
N875 X30.7631 Y9.2234 I0.1088 J-0.0201
N880 G3 X30.8552 Y9.3072 I-0.0228 J0.1176
N885 G2 X31.17 Y9.935 I1.8948 J-0.5572
N890 X34.33 I1.58 J-1.185
N895 X32.75 Y6.775 I-1.58 J-1.185
N900 X32.7378 I-0.0061 J1.975
N905 X30.8552 Y9.3072 I0.0122 J1.975
N910 G3 X30.8487 Y9.3173 I-0.0077 J0.0023
N915 G1 X30.732 Y9.3348
N920 G2 X30.7255 Y9.3449 I0.0012 J0.0079
N925 G1 Z-0.25 F20
N930 G2 X31.4385 Y10.4042 I2.026 J-0.5941 F40
N935 X32.6818 Y10.8605 I1.3209 J-1.6769
N940 X33.952 Y10.4854 I0.0757 J-2.0817
N945 X34.6725 Y9.6205 I-1.2296 J-1.7568
N950 X34.8472 Y8.5083 I-1.8978 J-0.8679
N955 X33.5242 Y6.7861 I-2.1056 J0.2481
N960 X30.7255 Y9.3449 I-0.7728 J1.9648
N965 X30.8219 Y9.4241 I0.1062 J-0.0312
N970 G3 X30.9222 Y9.4981 I-0.0107 J0.1195
N975 G2 X31.17 Y9.935 I1.8278 J-0.7481
N980 X34.33 I1.58 J-1.185
N985 X32.75 Y6.775 I-1.58 J-1.185
N990 X32.7378 I-0.0061 J1.975
N995 X30.9222 Y9.4981 I0.0122 J1.975
N1000 G3 X30.9176 Y9.5086 I-0.0074 J0.003
N1005 G1 X30.6858 Y9.597
N1010 G3 X30.6755 Y9.5925 I-0.0028 J-0.0075
N1015 X30.5382 Y8.4056 I2.1 J-0.8444
N1020 X31.0299 Y7.3167 I2.1957 J0.336
N1025 X33.9384 Y6.8524 I1.7211 J1.4392
N1030 X34.7447 Y7.7341 I-1.1676 J1.8772
N1035 X34.9837 Y8.9047 I-2.0308 J1.0243
N1040 X34.7902 Y9.6738 I-2.185 J-0.1409
N1045 X34.3399 Y10.3265 I-2.0678 J-0.9448
N1050 X34.0217 Y10.5928 I-1.5605 J-1.5413
N1055 X33.2873 Y10.9237 I-1.2969 J-1.8984
N1060 X32.4832 Y10.9731 I-0.5335 J-2.1143
N1065 X31.3913 Y10.5291 I0.2825 J-2.2594
N1070 X30.6755 Y9.5925 I1.3328 J-1.7603
N1075 G2 X30.5767 Y9.5238 I-0.1017 J0.0409
N1080 G3 X30.4809 Y9.4511 I0.0027 J-0.1031
N1085 X35.0191 Y8.0489 I2.2691 J-0.7011
N1090 X34.65 Y10.175 I-2.2691 J0.7011
N1095 X34.6427 Y10.1847 I-1.9037 J-1.4201
N1100 X30.85 Y10.175 I-1.8927 J-1.4347
N1105 X30.4809 Y9.4511 I1.9 J-1.425
N1110 X30.4868 Y9.441 I0.0076 J-0.0024
N1115 G1 X30.6037 Y9.4154
N1120 G2 X30.6096 Y9.4053 I-0.0017 J-0.0078
N1125 G1 Z-0.3 F20
N1130 G3 X30.5382 Y8.4056 I2.1659 J-0.6572 F40
N1135 X31.0299 Y7.3167 I2.1957 J0.336
N1140 X33.9384 Y6.8524 I1.7211 J1.4392
N1145 X34.7447 Y7.7341 I-1.1676 J1.8772
N1150 X34.9837 Y8.9047 I-2.0308 J1.0243
N1155 X34.7902 Y9.6738 I-2.185 J-0.1409
N1160 X34.3399 Y10.3265 I-2.0678 J-0.9448
N1165 X34.0217 Y10.5928 I-1.5605 J-1.5413
N1170 X33.2873 Y10.9237 I-1.2969 J-1.8984
N1175 X32.4832 Y10.9731 I-0.5335 J-2.1143
N1180 X31.3913 Y10.5291 I0.2825 J-2.2594
N1185 X30.6755 Y9.5925 I1.3328 J-1.7603
N1190 X30.6096 Y9.4053 I2.1 J-0.8444
N1195 G2 X30.5169 Y9.3279 I-0.1053 J0.032
N1200 G3 X30.4275 Y9.2467 I0.0118 J-0.1029
N1205 X35.0725 Y8.2533 I2.3225 J-0.4967
N1210 X34.65 Y10.175 I-2.3225 J0.4967
N1215 X34.6427 Y10.1847 I-1.9037 J-1.4201
N1220 X30.85 Y10.175 I-1.8927 J-1.4347
N1225 X30.4275 Y9.2467 I1.9 J-1.425
N1230 X30.4334 Y9.2373 I0.0078 J-0.0017
N1235 G1 X30.6749 Y9.1758
N1240 G3 X30.6847 Y9.1819 I0.002 J0.0078
N1245 G2 X31.4385 Y10.4042 I2.0668 J-0.4311
N1250 X32.6818 Y10.8605 I1.3209 J-1.6769
N1255 X33.952 Y10.4854 I0.0757 J-2.0817
N1260 X34.6725 Y9.6205 I-1.2296 J-1.7568
N1265 X34.8472 Y8.5083 I-1.8978 J-0.8679
N1270 X33.5242 Y6.7861 I-2.1056 J0.2481
N1275 X30.6847 Y9.1819 I-0.7728 J1.9648
N1280 X30.7744 Y9.2684 I0.1083 J-0.0226
N1285 G3 X30.8684 Y9.3501 I-0.0202 J0.1181
N1290 G2 X31.17 Y9.935 I1.8816 J-0.6001
N1295 X34.33 I1.58 J-1.185
N1300 X32.75 Y6.775 I-1.58 J-1.185
N1305 X32.7378 I-0.0061 J1.975
N1310 X30.8684 Y9.3501 I0.0122 J1.975
N1315 G1 X30.8231 Y9.3645 Z-0.2953
N1320 G0 Z0.6

(2D Pocket3)
N1330 M8
N1335 X20.9461 Y11.6656
N1340 Z0.6
N1345 Z0.2
N1350 G1 Z0.1644 F20
N1355 Z-0.125
N1360 G2 X21.0305 Y11.6133 I-0.2062 J-0.4263 F40
N1365 G3 X21.0411 Y11.6185 I0.004 J0.0052
N1370 G1 Y11.7783
N1375 G3 X21.0283 Y11.7911 I-0.0128
N1380 G1 X14.9716
N1385 G3 X14.959 Y11.7784 J-0.0126
N1390 G1 Y11.6185
N1395 G3 X14.9695 Y11.6133 I0.0066
N1400 G2 X15.1017 Y11.6854 I0.2881 J-0.3709
N1405 X15.25 Y11.7108 I0.1483 J-0.4212
N1410 G1 X20.7522
N1415 G2 X20.8995 Y11.6852 J-0.437
N1420 X20.9461 Y11.6656 I-0.1596 J-0.4459
N1425 X20.9856 Y11.5942 I-0.0308 J-0.0636
N1430 G3 X21.013 Y11.5174 I0.0928 J-0.0103
N1435 G2 X21.125 Y11.25 I-0.263 J-0.2674
N1440 G1 Y8.25
N1445 G2 X20.75 Y7.875 I-0.375
N1450 G1 X15.25
N1455 G2 X14.875 Y8.25 J0.375
N1460 G1 Y11.25
N1465 G2 X15.25 Y11.625 I0.375
N1470 G1 X20.75
N1475 G2 X20.7522 I0.0011 J-0.375
N1480 X21.013 Y11.5174 I-0.0022 J-0.375
N1485 G3 X21.0258 Y11.5196 I0.0056 J0.0057
N1490 G1 X21.1242 Y11.7213
N1495 G3 X21.125 Y11.7248 I-0.0072 J0.0035
N1500 G1 Y11.875
N1505 X14.875
N1510 Y7.99
N1515 G3 X15 Y7.865 I0.125
N1520 G1 X21
N1525 G3 X21.125 Y7.99 J0.125
N1530 G1 Y11.6784
N1535 Y11.7248
N1540 X21.0775 Z-0.1202
N1545 G0 Z0.6

(2D Contour5)
N1555 M8
N1560 X7.4375 Y2.3438
N1565 Z0.6
N1570 Z0.2
N1575 G1 Z0.0394 F20
N1580 Z-0.1
N1585 Y5 F40
N1590 G3 X7.3125 Y5.125 I-0.125
N1595 G1 X4.125
N1600 G3 X4 Y5 J-0.125
N1605 G1 Y0.75
N1610 G3 X4.125 Y0.625 I0.125
N1615 G1 X7.3125
N1620 G3 X7.4375 Y0.75 J0.125
N1625 G1 Y2.3438
N1630 G0 Z0.6

(2D Pocket5)
N1640 M8
N1645 X31.25 Y3.5126
N1650 Z0.6
N1655 Z0.2
N1660 G1 Z0.1 F20
N1665 Z-0.1
N1670 X8.7501 F40
N1675 G3 Y3.4874 J-0.0126
N1680 G1 X31.25
N1685 G3 X31.2626 Y3.5 J0.0126
N1690 X31.25 Y3.5126 I-0.0126
N1695 G2 X31.097 Y3.6147 J0.1658
N1700 G3 X30.9439 Y3.7167 I-0.153 J-0.0638
N1705 G1 X8.5461
N1710 G3 X8.5333 Y3.7039 J-0.0128
N1715 G1 Y3.2961
N1720 G3 X8.5461 Y3.2833 I0.0128
N1725 G1 X31.4539
N1730 G3 X31.4667 Y3.2961 J0.0128
N1735 G1 Y3.7039
N1740 G3 X31.4539 Y3.7167 I-0.0128
N1745 G1 X30.9439
N1750 G2 X30.7909 Y3.8187 J0.1658
N1755 G3 X30.6378 Y3.9207 I-0.153 J-0.0638
N1760 G1 X8.342
N1765 G3 X8.3293 Y3.908 J-0.0128
N1770 G1 Y3.092
N1775 G3 X8.342 Y3.0793 I0.0128
N1780 G1 X31.658
N1785 G3 X31.6707 Y3.092 J0.0128
N1790 G1 Y3.908
N1795 G3 X31.658 Y3.9207 I-0.0128
N1800 G1 X30.6378
N1805 G2 X30.4846 Y4.0229 J0.166
N1810 G3 X30.3315 Y4.125 I-0.1532 J-0.0638
N1815 G1 X8.125
N1820 Y2.875
N1825 X31.875
N1830 Y4.125
N1835 X30.3315
N1840 Y4.0775 Z-0.0952
N1845 G0 Z0.6

(2D Contour7)
N1855 M8
N1860 X16.75 Y8.125
N1865 Z0.6
N1870 Z0.2
N1875 G1 Z0.1644 F20
N1880 Z-0.125
N1885 X20.75 F40
N1890 G3 X20.875 Y8.25 J0.125
N1895 G1 Y11.25
N1900 G3 X20.75 Y11.375 I-0.125
N1905 G1 X15.25
N1910 G3 X15.125 Y11.25 J-0.125
N1915 G1 Y8.25
N1920 G3 X15.25 Y8.125 I0.125
N1925 G1 X16.75
N1930 Z-0.25 F20
N1935 X20.75 F40
N1940 G3 X20.875 Y8.25 J0.125
N1945 G1 Y11.25
N1950 G3 X20.75 Y11.375 I-0.125
N1955 G1 X15.25
N1960 G3 X15.125 Y11.25 J-0.125
N1965 G1 Y8.25
N1970 G3 X15.25 Y8.125 I0.125
N1975 G1 X16.75
N1980 Z-0.375 F20
N1985 X20.75 F40
N1990 G3 X20.875 Y8.25 J0.125
N1995 G1 Y11.25
N2000 G3 X20.75 Y11.375 I-0.125
N2005 G1 X15.25
N2010 G3 X15.125 Y11.25 J-0.125
N2015 G1 Y8.25
N2020 G3 X15.25 Y8.125 I0.125
N2025 G1 X16.75
N2030 Z-0.5 F20
N2035 X20.75 F40
N2040 G3 X20.875 Y8.25 J0.125
N2045 G1 Y11.25
N2050 G3 X20.75 Y11.375 I-0.125
N2055 G1 X15.25
N2060 G3 X15.125 Y11.25 J-0.125
N2065 G1 Y8.25
N2070 G3 X15.25 Y8.125 I0.125
N2075 G1 X16.75
N2080 G0 Z0.2
N2085 X7.1875 Y3.4063
N2090 G1 Z0.1644 F20
N2095 Z-0.125
N2100 Y4.75 F40
N2105 G3 X7.0625 Y4.875 I-0.125
N2110 G1 X4.375
N2115 G3 X4.25 Y4.75 J-0.125
N2120 G1 Y1
N2125 G3 X4.375 Y0.875 I0.125
N2130 G1 X7.0625
N2135 G3 X7.1875 Y1 J0.125
N2140 G1 Y3.4063
N2145 Z-0.25 F20
N2150 Y4.75 F40
N2155 G3 X7.0625 Y4.875 I-0.125
N2160 G1 X4.375
N2165 G3 X4.25 Y4.75 J-0.125
N2170 G1 Y1
N2175 G3 X4.375 Y0.875 I0.125
N2180 G1 X7.0625
N2185 G3 X7.1875 Y1 J0.125
N2190 G1 Y3.4063
N2195 Z-0.375 F20
N2200 Y4.75 F40
N2205 G3 X7.0625 Y4.875 I-0.125
N2210 G1 X4.375
N2215 G3 X4.25 Y4.75 J-0.125
N2220 G1 Y1
N2225 G3 X4.375 Y0.875 I0.125
N2230 G1 X7.0625
N2235 G3 X7.1875 Y1 J0.125
N2240 G1 Y3.4063
N2245 Z-0.5 F20
N2250 Y4.75 F40
N2255 G3 X7.0625 Y4.875 I-0.125
N2260 G1 X4.375
N2265 G3 X4.25 Y4.75 J-0.125
N2270 G1 Y1
N2275 G3 X4.375 Y0.875 I0.125
N2280 G1 X7.0625
N2285 G3 X7.1875 Y1 J0.125
N2290 G1 Y3.4063
N2295 G0 Z0.2
N2300 X3.25 Y4.625
N2305 G1 Z0.1644 F20
N2310 Z-0.125
N2315 Y4.875 F40
N2320 X2.75
N2325 Y4.375
N2330 X3.25
N2335 Y4.625
N2340 Z-0.25 F20
N2345 Y4.875 F40
N2350 X2.75
N2355 Y4.375
N2360 X3.25
N2365 Y4.625
N2370 Z-0.375 F20
N2375 Y4.875 F40
N2380 X2.75
N2385 Y4.375
N2390 X3.25
N2395 Y4.625
N2400 Z-0.5 F20
N2405 Y4.875 F40
N2410 X2.75
N2415 Y4.375
N2420 X3.25
N2425 Y4.625
N2430 G0 Z0.2
N2435 X2.125
N2440 G1 Z0.1644 F20
N2445 Z-0.125
N2450 Y4.875 F40
N2455 X1.625
N2460 Y4.375
N2465 X2.125
N2470 Y4.625
N2475 Z-0.25 F20
N2480 Y4.875 F40
N2485 X1.625
N2490 Y4.375
N2495 X2.125
N2500 Y4.625
N2505 Z-0.375 F20
N2510 Y4.875 F40
N2515 X1.625
N2520 Y4.375
N2525 X2.125
N2530 Y4.625
N2535 Z-0.5 F20
N2540 Y4.875 F40
N2545 X1.625
N2550 Y4.375
N2555 X2.125
N2560 Y4.625
N2565 G0 Z0.2
N2570 X4.63 Y9.785
N2575 G1 Z0.1644 F20
N2580 Z-0.125
N2585 G3 X1.87 Y7.715 I-1.38 J-1.035 F40
N2590 X4.63 Y9.785 I1.38 J1.035
N2595 G1 Z-0.25 F20
N2600 G3 X1.87 Y7.715 I-1.38 J-1.035 F40
N2605 X4.63 Y9.785 I1.38 J1.035
N2610 G1 Z-0.375 F20
N2615 G3 X1.87 Y7.715 I-1.38 J-1.035 F40
N2620 X4.63 Y9.785 I1.38 J1.035
N2625 G1 Z-0.5 F20
N2630 G3 X1.87 Y7.715 I-1.38 J-1.035 F40
N2635 X4.63 Y9.785 I1.38 J1.035
N2640 G0 Z0.2
N2645 X34.13
N2650 G1 Z0.1644 F20
N2655 Z-0.125
N2660 G3 X31.37 Y7.715 I-1.38 J-1.035 F40
N2665 X34.13 Y9.785 I1.38 J1.035
N2670 G1 Z-0.25 F20
N2675 G3 X31.37 Y7.715 I-1.38 J-1.035 F40
N2680 X34.13 Y9.785 I1.38 J1.035
N2685 G1 Z-0.375 F20
N2690 G3 X31.37 Y7.715 I-1.38 J-1.035 F40
N2695 X34.13 Y9.785 I1.38 J1.035
N2700 G1 Z-0.5 F20
N2705 G3 X31.37 Y7.715 I-1.38 J-1.035 F40
N2710 X34.13 Y9.785 I1.38 J1.035
N2715 G0 Z0.2
N2720 X34.004 Y4.253
N2725 G1 Z0.1644 F20
N2730 Z-0.125
N2735 G3 X33.996 I-0.004 J-0.003 F40
N2740 X34.004 Y4.247 I0.004 J-0.003
N2745 Y4.253 I-0.004 J0.003
N2750 G1 Z-0.25 F20
N2755 G3 X33.996 I-0.004 J-0.003 F40
N2760 X34.004 Y4.247 I0.004 J-0.003
N2765 Y4.253 I-0.004 J0.003
N2770 G1 Z-0.375 F20
N2775 G3 X33.996 I-0.004 J-0.003 F40
N2780 X34.004 Y4.247 I0.004 J-0.003
N2785 Y4.253 I-0.004 J0.003
N2790 G1 Z-0.5 F20
N2795 G3 X33.996 I-0.004 J-0.003 F40
N2800 X34.004 Y4.247 I0.004 J-0.003
N2805 Y4.253 I-0.004 J0.003
N2810 G0 Z0.6

(2D Contour4)
N2820 M8
N2825 X0 Y12.125
N2830 Z0.6
N2835 Z0.2
N2840 G1 Z0.1644 F20
N2845 Z-0.125
N2850 X36 F40
N2855 G2 X36.125 Y12 J-0.125
N2860 G1 Y0
N2865 G2 X36 Y-0.125 I-0.125
N2870 G1 X0
N2875 G2 X-0.125 Y0 J0.125
N2880 G1 Y12
N2885 G2 X0 Y12.125 I0.125
N2890 G1 Z-0.25 F20
N2895 X36 F40
N2900 G2 X36.125 Y12 J-0.125
N2905 G1 Y0
N2910 G2 X36 Y-0.125 I-0.125
N2915 G1 X0
N2920 G2 X-0.125 Y0 J0.125
N2925 G1 Y12
N2930 G2 X0 Y12.125 I0.125
N2935 G1 Z-0.375 F20
N2940 X36 F40
N2945 G2 X36.125 Y12 J-0.125
N2950 G1 Y0
N2955 G2 X36 Y-0.125 I-0.125
N2960 G1 X0
N2965 G2 X-0.125 Y0 J0.125
N2970 G1 Y12
N2975 G2 X0 Y12.125 I0.125
N2980 G1 Z-0.5 F20
N2985 X36 F40
N2990 G2 X36.125 Y12 J-0.125
N2995 G1 Y0
N3000 G2 X36 Y-0.125 I-0.125
N3005 G1 X0
N3010 G2 X-0.125 Y0 J0.125
N3015 G1 Y12
N3020 G2 X0 Y12.125 I0.125
N3025 G0 Z0.6
N3035 M9
N3040 G28 G91 Z0
N3045 G28 X0 Y0
N3050 M30
%
