%
(CUT_top)
(T4  D=0.25 CR=0 - ZMIN=-0.5 - flat end mill)
N10 G90 G94
N15 G17
N20 G20
N25 G28 G91 Z0
N30 G90

(2D Pocket2)
N35 M9
N40 T4 M6
N45 S5000 M3
N50 G54
N55 M8
N65 G0 X2.4419 Y8.6609
N70 G43 Z0.6 H4
N75 Z0.2
N80 G1 Z0.1644 F20
N85 Z-0.125
N90 G3 X2.9397 Y8.532 I0.7954 J2.045 F40
N95 X3.7324 Y8.5636 I0.3075 J2.246
N100 X5.4811 Y10.9378 I-0.4786 J2.1836
N105 X5.1874 Y11.8731 I-2.2662 J-0.1979
N110 X4.5217 Y12.5928 I-1.905 J-1.0944
N115 X3.7873 Y12.9237 I-1.2969 J-1.8984
N120 X2.9832 Y12.9731 I-0.5335 J-2.1143
N125 X1.8802 Y12.5199 I0.282 J-2.2556
N130 X1.1649 Y11.5657 I1.3509 J-1.7579
N135 X2.186 Y8.7799 I2.0913 J-0.8135
N140 X2.4419 Y8.6609 I1.0513 J1.926
N145 G2 X2.5113 Y8.5639 I-0.0395 J-0.1016
N150 G3 X2.5848 Y8.4701 I0.1022 J0.0043
N155 X5.15 Y12.175 I0.6652 J2.2799
N160 X5.1391 Y12.1895 I-1.9013 J-1.4233
N165 X1.35 Y12.175 I-1.8891 J-1.4395
N170 X2.5848 Y8.4701 I1.9 J-1.425
N175 X2.5948 Y8.4759 I0.0022 J0.0077
N180 G1 X2.653 Y8.717
N185 G3 X2.6475 Y8.7266 I-0.0078 J0.0019
N190 G2 X1.1464 Y10.9267 I0.5987 J2.0206
N195 X1.4231 Y11.8085 I2.1386 J-0.1867
N200 X2.0505 Y12.4871 I1.7946 J-1.0299
N205 X2.7428 Y12.7993 I1.2248 J-1.7927
N210 X3.5009 Y12.8461 I0.5034 J-1.99
N215 X4.5412 Y12.419 I-0.2662 J-2.1287
N220 X5.2159 Y11.5193 I-1.2722 J-1.657
N225 X4.2527 Y8.8923 I-1.972 J-0.7671
N230 X3.5422 Y8.6587 I-0.9901 J1.8139
N235 X2.795 Y8.6886 I-0.2894 J2.1191
N240 X2.6475 Y8.7266 I0.4512 J2.0585
N245 X2.5679 Y8.824 I0.0317 J0.107
N250 G3 X2.4936 Y8.9256 I-0.1207 J-0.0104
N255 G2 X1.67 Y11.935 I0.7564 J1.8244
N260 X4.83 I1.58 J-1.185
N265 X4.8373 Y11.9252 I-1.5763 J-1.1899
N270 X3.25 Y8.775 I-1.5873 J-1.1752
N275 X2.4936 Y8.9256 J1.975
N280 G3 X2.4828 Y8.9201 I-0.0031 J-0.0074
N285 G1 X2.4545 Y8.804
N290 G2 X2.4437 Y8.7985 I-0.0078 J0.0019
N295 G1 Z-0.25 F20
N300 G2 X1.1464 Y10.9267 I0.8024 J1.9487 F40
N305 X1.4231 Y11.8085 I2.1386 J-0.1867
N310 X2.0505 Y12.4871 I1.7946 J-1.0299
N315 X2.7428 Y12.7993 I1.2248 J-1.7927
N320 X3.5009 Y12.8461 I0.5034 J-1.99
N325 X4.5412 Y12.419 I-0.2662 J-2.1287
N330 X5.2159 Y11.5193 I-1.2722 J-1.657
N335 X4.2527 Y8.8923 I-1.972 J-0.7671
N340 X3.5422 Y8.6587 I-0.9901 J1.8139
N345 X2.795 Y8.6886 I-0.2894 J2.1191
N350 X2.4437 Y8.7985 I0.4512 J2.0585
N355 X2.3745 Y8.9038 I0.0426 J0.1034
N360 G3 X2.3108 Y9.0126 I-0.1214 J0.002
N365 G2 X4.1892 Y12.4874 I0.9392 J1.7374
N370 X4.83 Y11.935 I-0.9392 J-1.7374
N375 X4.8373 Y11.9252 I-1.5763 J-1.1899
N380 X3.25 Y8.775 I-1.5873 J-1.1752
N385 X2.3108 Y9.0126 J1.975
N390 G3 X2.3003 Y9.01 I-0.0038 J-0.007
N395 G1 X2.1629 Y8.8025
N400 G3 X2.1657 Y8.7911 I0.0067 J-0.0044
N405 X2.186 Y8.7799 I1.0905 J1.9611
N410 X2.9397 Y8.532 I1.0513 J1.926
N415 X3.7324 Y8.5636 I0.3075 J2.246
N420 X5.4811 Y10.9378 I-0.4786 J2.1836
N425 X5.1874 Y11.8731 I-2.2662 J-0.1979
N430 X4.5217 Y12.5928 I-1.905 J-1.0944
N435 X3.7873 Y12.9237 I-1.2969 J-1.8984
N440 X2.9832 Y12.9731 I-0.5335 J-2.1143
N445 X1.8802 Y12.5199 I0.282 J-2.2556
N450 X1.1649 Y11.5657 I1.3509 J-1.7579
N455 X2.1657 Y8.7911 I2.0913 J-0.8135
N460 G2 X2.2216 Y8.6849 I-0.0533 J-0.0959
N465 G3 X2.2821 Y8.5812 I0.1025 J-0.0097
N470 X5.15 Y12.175 I0.9679 J2.1688
N475 X5.1391 Y12.1895 I-1.9013 J-1.4233
N480 X1.35 Y12.175 I-1.8891 J-1.4395
N485 X2.2821 Y8.5812 I1.9 J-1.425
N490 X2.2933 Y8.5871 I0.0033 J0.0073
N495 G1 X2.3135 Y8.7046
N500 G2 X2.3247 Y8.7105 I0.0079 J-0.0014
N505 G1 Z-0.3 F20
N510 G3 X2.9397 Y8.532 I0.9126 J1.9955 F40
N515 X3.7324 Y8.5636 I0.3075 J2.246
N520 X5.4811 Y10.9378 I-0.4786 J2.1836
N525 X5.1874 Y11.8731 I-2.2662 J-0.1979
N530 X4.5217 Y12.5928 I-1.905 J-1.0944
N535 X3.7873 Y12.9237 I-1.2969 J-1.8984
N540 X2.9832 Y12.9731 I-0.5335 J-2.1143
N545 X1.8802 Y12.5199 I0.282 J-2.2556
N550 X1.1649 Y11.5657 I1.3509 J-1.7579
N555 X2.186 Y8.7799 I2.0913 J-0.8135
N560 X2.3247 Y8.7105 I1.0513 J1.926
N565 G2 X2.3885 Y8.6095 I-0.0454 J-0.0993
N570 G3 X2.4567 Y8.5114 I0.1024 J-0.0015
N575 X5.15 Y12.175 I0.7933 J2.2386
N580 X5.1391 Y12.1895 I-1.9013 J-1.4233
N585 X1.35 Y12.175 I-1.8891 J-1.4395
N590 X2.4567 Y8.5114 I1.9 J-1.425
N595 X2.4668 Y8.5159 I0.0027 J0.0075
N600 G1 X2.5609 Y8.7453
N605 G3 X2.5562 Y8.7559 I-0.0074 J0.003
N610 G2 X1.1464 Y10.9267 I0.6899 J1.9913
N615 X1.4231 Y11.8085 I2.1386 J-0.1867
N620 X2.0505 Y12.4871 I1.7946 J-1.0299
N625 X2.7428 Y12.7993 I1.2248 J-1.7927
N630 X3.5009 Y12.8461 I0.5034 J-1.99
N635 X4.5412 Y12.419 I-0.2662 J-2.1287
N640 X5.2159 Y11.5193 I-1.2722 J-1.657
N645 X4.2527 Y8.8923 I-1.972 J-0.7671
N650 X3.5422 Y8.6587 I-0.9901 J1.8139
N655 X2.795 Y8.6886 I-0.2894 J2.1191
N660 X2.5562 Y8.7559 I0.4512 J2.0585
N665 X2.4811 Y8.857 I0.0366 J0.1056
N670 G3 X2.4114 Y8.9619 I-0.1211 J-0.0049
N675 G2 X4.0886 Y12.5381 I0.8386 J1.7881
N680 X4.83 Y11.935 I-0.8386 J-1.7881
N685 X4.8373 Y11.9252 I-1.5763 J-1.1899
N690 X3.25 Y8.775 I-1.5873 J-1.1752
N695 X2.4114 Y8.9619 J1.975
N700 G1 X2.3913 Y8.9189 Z-0.2953
N705 G0 Z0.2
N710 X30.5954 Y11.3565
N715 G1 Z0.1644 F20
N720 Z-0.125
N725 G3 X30.5382 Y10.4056 I2.1801 J-0.6084 F40
N730 X31.0299 Y9.3167 I2.1957 J0.336
N735 X33.9384 Y8.8524 I1.7211 J1.4392
N740 X34.7447 Y9.7341 I-1.1676 J1.8772
N745 X34.9837 Y10.9047 I-2.0308 J1.0243
N750 X34.7902 Y11.6738 I-2.185 J-0.1409
N755 X34.3399 Y12.3265 I-2.0678 J-0.9448
N760 X34.0217 Y12.5928 I-1.5605 J-1.5413
N765 X33.2873 Y12.9237 I-1.2969 J-1.8984
N770 X32.4832 Y12.9731 I-0.5335 J-2.1143
N775 X31.3913 Y12.5291 I0.2825 J-2.2594
N780 X30.6755 Y11.5925 I1.3328 J-1.7603
N785 X30.5954 Y11.3565 I2.1 J-0.8444
N790 G2 X30.5044 Y11.277 I-0.1061 J0.0296
N795 G3 X30.4168 Y11.1937 I0.0142 J-0.1026
N800 X32.75 Y8.375 I2.3332 J-0.4437
N805 X34.65 Y12.175 J2.375
N810 X34.6427 Y12.1847 I-1.9037 J-1.4201
N815 X30.85 Y12.175 I-1.8927 J-1.4347
N820 X30.4168 Y11.1937 I1.9 J-1.425
N825 X30.4229 Y11.1844 I0.0079 J-0.0015
N830 G1 X30.6658 Y11.1286
N835 G3 X30.6754 Y11.1349 I0.0018 J0.0078
N840 G2 X31.4385 Y12.4042 I2.0761 J-0.384
N845 X32.6818 Y12.8605 I1.3209 J-1.6769
N850 X33.952 Y12.4854 I0.0757 J-2.0817
N855 X34.6725 Y11.6205 I-1.2296 J-1.7568
N860 X34.8472 Y10.5083 I-1.8978 J-0.8679
N865 X33.5242 Y8.7861 I-2.1056 J0.2481
N870 X30.6754 Y11.1349 I-0.7728 J1.9648
N875 X30.7631 Y11.2234 I0.1088 J-0.0201
N880 G3 X30.8552 Y11.3072 I-0.0228 J0.1176
N885 G2 X31.17 Y11.935 I1.8948 J-0.5572
N890 X34.33 I1.58 J-1.185
N895 X32.75 Y8.775 I-1.58 J-1.185
N900 X32.7378 I-0.0061 J1.975
N905 X30.8552 Y11.3072 I0.0122 J1.975
N910 G3 X30.8487 Y11.3173 I-0.0077 J0.0023
N915 G1 X30.732 Y11.3348
N920 G2 X30.7255 Y11.3449 I0.0012 J0.0079
N925 G1 Z-0.25 F20
N930 G2 X31.4385 Y12.4042 I2.026 J-0.5941 F40
N935 X32.6818 Y12.8605 I1.3209 J-1.6769
N940 X33.952 Y12.4854 I0.0757 J-2.0817
N945 X34.6725 Y11.6205 I-1.2296 J-1.7568
N950 X34.8472 Y10.5083 I-1.8978 J-0.8679
N955 X33.5242 Y8.7861 I-2.1056 J0.2481
N960 X30.7255 Y11.3449 I-0.7728 J1.9648
N965 X30.8219 Y11.4241 I0.1062 J-0.0312
N970 G3 X30.9222 Y11.4981 I-0.0107 J0.1195
N975 G2 X31.17 Y11.935 I1.8278 J-0.7481
N980 X34.33 I1.58 J-1.185
N985 X32.75 Y8.775 I-1.58 J-1.185
N990 X32.7378 I-0.0061 J1.975
N995 X30.9222 Y11.4981 I0.0122 J1.975
N1000 G3 X30.9176 Y11.5086 I-0.0074 J0.003
N1005 G1 X30.6858 Y11.597
N1010 G3 X30.6755 Y11.5925 I-0.0028 J-0.0075
N1015 X30.5382 Y10.4056 I2.1 J-0.8444
N1020 X31.0299 Y9.3167 I2.1957 J0.336
N1025 X33.9384 Y8.8524 I1.7211 J1.4392
N1030 X34.7447 Y9.7341 I-1.1676 J1.8772
N1035 X34.9837 Y10.9047 I-2.0308 J1.0243
N1040 X34.7902 Y11.6738 I-2.185 J-0.1409
N1045 X34.3399 Y12.3265 I-2.0678 J-0.9448
N1050 X34.0217 Y12.5928 I-1.5605 J-1.5413
N1055 X33.2873 Y12.9237 I-1.2969 J-1.8984
N1060 X32.4832 Y12.9731 I-0.5335 J-2.1143
N1065 X31.3913 Y12.5291 I0.2825 J-2.2594
N1070 X30.6755 Y11.5925 I1.3328 J-1.7603
N1075 G2 X30.5767 Y11.5238 I-0.1017 J0.0409
N1080 G3 X30.4809 Y11.4511 I0.0027 J-0.1031
N1085 X32.75 Y8.375 I2.2691 J-0.7011
N1090 X34.65 Y12.175 J2.375
N1095 X34.6427 Y12.1847 I-1.9037 J-1.4201
N1100 X30.85 Y12.175 I-1.8927 J-1.4347
N1105 X30.4809 Y11.4511 I1.9 J-1.425
N1110 X30.4868 Y11.441 I0.0076 J-0.0024
N1115 G1 X30.6037 Y11.4154
N1120 G2 X30.6096 Y11.4053 I-0.0017 J-0.0078
N1125 G1 Z-0.3 F20
N1130 G3 X30.5382 Y10.4056 I2.1659 J-0.6572 F40
N1135 X31.0299 Y9.3167 I2.1957 J0.336
N1140 X33.9384 Y8.8524 I1.7211 J1.4392
N1145 X34.7447 Y9.7341 I-1.1676 J1.8772
N1150 X34.9837 Y10.9047 I-2.0308 J1.0243
N1155 X34.7902 Y11.6738 I-2.185 J-0.1409
N1160 X34.3399 Y12.3265 I-2.0678 J-0.9448
N1165 X34.0217 Y12.5928 I-1.5605 J-1.5413
N1170 X33.2873 Y12.9237 I-1.2969 J-1.8984
N1175 X32.4832 Y12.9731 I-0.5335 J-2.1143
N1180 X31.3913 Y12.5291 I0.2825 J-2.2594
N1185 X30.6755 Y11.5925 I1.3328 J-1.7603
N1190 X30.6096 Y11.4053 I2.1 J-0.8444
N1195 G2 X30.5169 Y11.3279 I-0.1053 J0.032
N1200 G3 X30.4275 Y11.2467 I0.0118 J-0.1029
N1205 X32.75 Y8.375 I2.3225 J-0.4967
N1210 X34.65 Y12.175 J2.375
N1215 X34.6427 Y12.1847 I-1.9037 J-1.4201
N1220 X30.85 Y12.175 I-1.8927 J-1.4347
N1225 X30.4275 Y11.2467 I1.9 J-1.425
N1230 X30.4334 Y11.2373 I0.0078 J-0.0017
N1235 G1 X30.6749 Y11.1758
N1240 G3 X30.6847 Y11.1819 I0.002 J0.0078
N1245 G2 X31.4385 Y12.4042 I2.0668 J-0.4311
N1250 X32.6818 Y12.8605 I1.3209 J-1.6769
N1255 X33.952 Y12.4854 I0.0757 J-2.0817
N1260 X34.6725 Y11.6205 I-1.2296 J-1.7568
N1265 X34.8472 Y10.5083 I-1.8978 J-0.8679
N1270 X33.5242 Y8.7861 I-2.1056 J0.2481
N1275 X30.6847 Y11.1819 I-0.7728 J1.9648
N1280 X30.7744 Y11.2684 I0.1083 J-0.0226
N1285 G3 X30.8684 Y11.3501 I-0.0202 J0.1181
N1290 G2 X31.17 Y11.935 I1.8816 J-0.6001
N1295 X34.33 I1.58 J-1.185
N1300 X32.75 Y8.775 I-1.58 J-1.185
N1305 X32.7378 I-0.0061 J1.975
N1310 X30.8684 Y11.3501 I0.0122 J1.975
N1315 G1 X30.8231 Y11.3645 Z-0.2953
N1320 G0 Z0.6

(2D Pocket3)
N1330 M8
N1335 X13.851 Y13.649
N1340 Z0.6
N1345 Z0.2
N1350 G1 Z0.1644 F20
N1355 Z-0.125
N1360 G2 X14 Y13.7108 I0.149 J-0.149 F40
N1365 G1 X22
N1370 G2 X22.2108 Y13.5 J-0.2108
N1375 G1 Y6
N1380 G2 X22 Y5.7893 I-0.2108
N1385 G1 X14
N1390 G2 X13.7892 Y6 J0.2107
N1395 G1 Y13.5
N1400 G2 X13.851 Y13.649 I0.2108
N1405 X13.9431 Y13.6549 I0.0494 J-0.0494
N1410 G3 X14.0305 Y13.625 I0.0873 J0.1128
N1415 G1 X22
N1420 G2 X22.125 Y13.5 J-0.125
N1425 G1 Y6
N1430 G2 X22 Y5.875 I-0.125
N1435 G1 X14
N1440 G2 X13.875 Y6 J0.125
N1445 G1 Y13.5
N1450 G2 X14 Y13.625 I0.125
N1455 G1 X14.0305
N1460 Y13.6725 Z-0.1202
N1465 G0 Z0.2
N1470 X13.709 Y13.7071
N1475 G1 Z0.1644 F20
N1480 Z-0.125
N1485 X13.7108 Y5.75 F40
N1490 G3 X13.75 Y5.7108 I0.0392
N1495 G1 X22.25
N1500 G3 X22.2893 Y5.75 J0.0392
N1505 G1 X22.2911 Y13.7783
N1510 G3 X22.2783 Y13.791 I-0.0128
N1515 G1 X13.7216
N1520 G3 X13.709 Y13.7784 J-0.0126
N1525 G1 Y13.7071
N1530 G2 X13.667 Y13.6441 I-0.0682
N1535 G3 X13.625 Y13.5811 I0.0263 J-0.063
N1540 G1 Y6
N1545 Y5.75
N1550 G3 X13.75 Y5.625 I0.125
N1555 G1 X22.25
N1560 G3 X22.375 Y5.75 J0.125
N1565 G1 Y13.875
N1570 X13.625
N1575 Y13.5811
N1580 X13.6725 Z-0.1202
N1585 G0 Z0.6

(2D Contour5)
N1595 M8
N1600 X1.875 Y5.625
N1605 Z0.6
N1610 Z0.2
N1615 G1 Z0.0394 F20
N1620 Z-0.1
N1625 X6.375 F40
N1630 G3 X6.5 Y5.75 J0.125
N1635 G1 Y7.25
N1640 G3 X6.375 Y7.375 I-0.125
N1645 G1 X1.125
N1650 G3 X1 Y7.25 J-0.125
N1655 G1 Y5.75
N1660 G3 X1.125 Y5.625 I0.125
N1665 G1 X1.875
N1670 G3 X1.9 Y5.65 J0.025
N1675 G1 Y5.675
N1680 G19 G3 Y5.7 Z-0.075 K0.025
N1685 G0 Z0.2
N1690 X6.6 Y4.95
N1695 G1 Z0.0394 F20
N1700 Z-0.1
N1705 G17 G3 X5.4 I-0.6 J-0.45 F40
N1710 X6.6 Y4.05 I0.6 J-0.45
N1715 Y4.95 I-0.6 J0.45
N1720 X6.565 Y4.955 I-0.02 J-0.015
N1725 G1 X6.545 Y4.94
N1730 X6.5419 Y4.9377 Z-0.0997
N1735 X6.5388 Y4.9354 Z-0.0988
N1740 X6.5359 Y4.9332 Z-0.0973
N1745 X6.5332 Y4.9312 Z-0.0952
N1750 X6.5309 Y4.9294 Z-0.0927
N1755 X6.5288 Y4.9279 Z-0.0897
N1760 X6.5272 Y4.9266 Z-0.0863
N1765 X6.526 Y4.9257 Z-0.0827
N1770 X6.5252 Y4.9252 Z-0.0789
N1775 X6.525 Y4.925 Z-0.075
N1780 G0 Z0.6

(2D Pocket5)
N1790 M8
N1795 X31.25 Y3.7626
N1800 Z0.6
N1805 Z0.2
N1810 G1 Z0.1 F20
N1815 Z-0.1
N1820 X8.7501 F40
N1825 G3 Y3.7374 J-0.0126
N1830 G1 X31.25
N1835 G3 X31.2626 Y3.75 J0.0126
N1840 X31.25 Y3.7626 I-0.0126
N1845 G2 X31.097 Y3.8647 J0.1658
N1850 G3 X30.9439 Y3.9667 I-0.153 J-0.0638
N1855 G1 X8.5461
N1860 G3 X8.5333 Y3.9539 J-0.0128
N1865 G1 Y3.5461
N1870 G3 X8.5461 Y3.5333 I0.0128
N1875 G1 X31.4539
N1880 G3 X31.4667 Y3.5461 J0.0128
N1885 G1 Y3.9539
N1890 G3 X31.4539 Y3.9667 I-0.0128
N1895 G1 X30.9439
N1900 G2 X30.7909 Y4.0687 J0.1658
N1905 G3 X30.6378 Y4.1707 I-0.153 J-0.0638
N1910 G1 X8.342
N1915 G3 X8.3293 Y4.158 J-0.0128
N1920 G1 Y3.342
N1925 G3 X8.342 Y3.3293 I0.0128
N1930 G1 X31.658
N1935 G3 X31.6707 Y3.342 J0.0128
N1940 G1 Y4.158
N1945 G3 X31.658 Y4.1707 I-0.0128
N1950 G1 X30.6378
N1955 G2 X30.4846 Y4.2729 J0.166
N1960 G3 X30.3315 Y4.375 I-0.1532 J-0.0638
N1965 G1 X8.125
N1970 Y3.125
N1975 X31.875
N1980 Y4.375
N1985 X30.3315
N1990 Y4.3275 Z-0.0952
N1995 G0 Z0.6

(2D Pocket6)
N2005 M8
N2010 X3 Y3.9207
N2015 Z0.6
N2020 Z0.2
N2025 G1 Z0.1644 F20
N2030 Z-0.125
N2035 X2.9669 F40
N2040 G3 X2.9543 Y3.9081 J-0.0126
N2045 G1 Y3.342
N2050 G3 X2.967 Y3.3293 I0.0128
N2055 G1 X3.033
N2060 G3 X3.0457 Y3.342 J0.0128
N2065 G1 Y3.908
N2070 G3 X3.033 Y3.9207 I-0.0128
N2075 G1 X3
N2080 G2 X2.8845 Y3.9954 J0.1267
N2085 G3 X2.75 Y3.9665 I-0.0641 J-0.0289
N2090 G1 Y3.125
N2095 X3.25
N2100 Y4.125
N2105 X2.75
N2110 Y3.9665
N2115 G3 X2.7573 Y3.9585 I0.008
N2120 G1 X3.0007 Y3.9367
N2125 G2 X3 Y3.9207 I-0.0007 J-0.008
N2130 G1 Z-0.2 F20
N2135 X2.9669 F40
N2140 G3 X2.9543 Y3.9081 J-0.0126
N2145 G1 Y3.342
N2150 G3 X2.967 Y3.3293 I0.0128
N2155 G1 X3.033
N2160 G3 X3.0457 Y3.342 J0.0128
N2165 G1 Y3.908
N2170 G3 X3.033 Y3.9207 I-0.0128
N2175 G1 X3
N2180 G2 X2.8845 Y3.9954 J0.1267
N2185 G3 X2.75 Y3.9665 I-0.0641 J-0.0289
N2190 G1 Y3.125
N2195 X3.25
N2200 Y4.125
N2205 X2.75
N2210 Y3.9665
N2215 X2.7975 Z-0.1953
N2220 G0 Z0.2
N2225 X1.875 Y3.9207
N2230 G1 Z0.1644 F20
N2235 Z-0.125
N2240 X1.842 F40
N2245 G3 X1.8293 Y3.908 J-0.0128
N2250 G1 Y3.342
N2255 G3 X1.842 Y3.3293 I0.0128
N2260 G1 X1.908
N2265 G3 X1.9207 Y3.342 J0.0128
N2270 G1 Y3.908
N2275 G3 X1.908 Y3.9207 I-0.0128
N2280 G1 X1.875
N2285 G2 X1.7595 Y3.9954 J0.1267
N2290 G3 X1.625 Y3.9665 I-0.0641 J-0.0289
N2295 G1 Y3.125
N2300 X2.125
N2305 Y4.125
N2310 X1.625
N2315 Y3.9665
N2320 G3 X1.6323 Y3.9585 I0.008
N2325 G1 X1.8757 Y3.9367
N2330 G2 X1.875 Y3.9207 I-0.0007 J-0.008
N2335 G1 Z-0.2 F20
N2340 X1.842 F40
N2345 G3 X1.8293 Y3.908 J-0.0128
N2350 G1 Y3.342
N2355 G3 X1.842 Y3.3293 I0.0128
N2360 G1 X1.908
N2365 G3 X1.9207 Y3.342 J0.0128
N2370 G1 Y3.908
N2375 G3 X1.908 Y3.9207 I-0.0128
N2380 G1 X1.875
N2385 G2 X1.7595 Y3.9954 J0.1267
N2390 G3 X1.625 Y3.9665 I-0.0641 J-0.0289
N2395 G1 Y3.125
N2400 X2.125
N2405 Y4.125
N2410 X1.625
N2415 Y3.9665
N2420 X1.6725 Z-0.1953
N2425 G0 Z0.6

(2D Contour7)
N2435 M8
N2440 X2.125 Y2.625
N2445 Z0.6
N2450 Z0.2
N2455 G1 Z0.1644 F20
N2460 Z-0.1125
N2465 Y2.875 F40
N2470 X1.625
N2475 Y2.375
N2480 X2.125
N2485 Y2.625
N2490 Z-0.225 F20
N2495 Y2.875 F40
N2500 X1.625
N2505 Y2.375
N2510 X2.125
N2515 Y2.625
N2520 Z-0.3375 F20
N2525 Y2.875 F40
N2530 X1.625
N2535 Y2.375
N2540 X2.125
N2545 Y2.625
N2550 Z-0.45 F20
N2555 Y2.875 F40
N2560 X1.625
N2565 Y2.375
N2570 X2.125
N2575 Y2.625
N2580 G0 Z0.2
N2585 X3.25
N2590 G1 Z0.1644 F20
N2595 Z-0.1125
N2600 Y2.875 F40
N2605 X2.75
N2610 Y2.375
N2615 X3.25
N2620 Y2.625
N2625 Z-0.225 F20
N2630 Y2.875 F40
N2635 X2.75
N2640 Y2.375
N2645 X3.25
N2650 Y2.625
N2655 Z-0.3375 F20
N2660 Y2.875 F40
N2665 X2.75
N2670 Y2.375
N2675 X3.25
N2680 Y2.625
N2685 Z-0.45 F20
N2690 Y2.875 F40
N2695 X2.75
N2700 Y2.375
N2705 X3.25
N2710 Y2.625
N2715 G0 Z0.6

(2D Contour3)
N2725 M8
N2730 X4.63 Y11.785
N2735 Z0.6
N2740 Z0.2
N2745 G1 Z0.1644 F20
N2750 Z-0.125
N2755 G3 X1.87 I-1.38 J-1.035 F40
N2760 X3.25 Y9.025 I1.38 J-1.035
N2765 X4.63 Y11.785 J1.725
N2770 G1 Z-0.25 F20
N2775 G3 X1.87 I-1.38 J-1.035 F40
N2780 X3.25 Y9.025 I1.38 J-1.035
N2785 X4.63 Y11.785 J1.725
N2790 G1 Z-0.375 F20
N2795 G3 X1.87 I-1.38 J-1.035 F40
N2800 X3.25 Y9.025 I1.38 J-1.035
N2805 X4.63 Y11.785 J1.725
N2810 G1 Z-0.5 F20
N2815 G3 X1.87 I-1.38 J-1.035 F40
N2820 X3.25 Y9.025 I1.38 J-1.035
N2825 X4.63 Y11.785 J1.725
N2830 G0 Z0.2
N2835 X6.375 Y6.5
N2840 G1 Z0.1644 F20
N2845 Z-0.125
N2850 Y7.25 F40
N2855 X1.125
N2860 Y5.75
N2865 X6.375
N2870 Y6.5
N2875 Z-0.25 F20
N2880 Y7.25 F40
N2885 X1.125
N2890 Y5.75
N2895 X6.375
N2900 Y6.5
N2905 Z-0.375 F20
N2910 Y7.25 F40
N2915 X1.125
N2920 Y5.75
N2925 X6.375
N2930 Y6.5
N2935 Z-0.5 F20
N2940 Y7.25 F40
N2945 X1.125
N2950 Y5.75
N2955 X6.375
N2960 Y6.5
N2965 G0 Z0.2
N2970 X21.875 Y9.75
N2975 G1 Z0.1644 F20
N2980 Z-0.125
N2985 Y13.375 F40
N2990 X14.125
N2995 Y6.125
N3000 X21.875
N3005 Y9.75
N3010 Z-0.25 F20
N3015 Y13.375 F40
N3020 X14.125
N3025 Y6.125
N3030 X21.875
N3035 Y9.75
N3040 Z-0.375 F20
N3045 Y13.375 F40
N3050 X14.125
N3055 Y6.125
N3060 X21.875
N3065 Y9.75
N3070 Z-0.5 F20
N3075 Y13.375 F40
N3080 X14.125
N3085 Y6.125
N3090 X21.875
N3095 Y9.75
N3100 G0 Z0.2
N3105 X34.13 Y11.785
N3110 G1 Z0.1644 F20
N3115 Z-0.125
N3120 G3 X31.37 Y9.715 I-1.38 J-1.035 F40
N3125 X32.75 Y9.025 I1.38 J1.035
N3130 X34.13 Y11.785 J1.725
N3135 G1 Z-0.25 F20
N3140 G3 X31.37 Y9.715 I-1.38 J-1.035 F40
N3145 X32.75 Y9.025 I1.38 J1.035
N3150 X34.13 Y11.785 J1.725
N3155 G1 Z-0.375 F20
N3160 G3 X31.37 Y9.715 I-1.38 J-1.035 F40
N3165 X32.75 Y9.025 I1.38 J1.035
N3170 X34.13 Y11.785 J1.725
N3175 G1 Z-0.5 F20
N3180 G3 X31.37 Y9.715 I-1.38 J-1.035 F40
N3185 X32.75 Y9.025 I1.38 J1.035
N3190 X34.13 Y11.785 J1.725
N3195 G0 Z0.2
N3200 X6.5 Y4.5
N3205 G1 Z0.1644 F20
N3210 Z-0.125
N3215 G3 X5.6 Y4.8 I-0.5 F40
N3220 X6.4 Y4.2 I0.4 J-0.3
N3225 X6.5 Y4.5 I-0.4 J0.3
N3230 G1 Z-0.25 F20
N3235 G3 X5.6 Y4.8 I-0.5 F40
N3240 X6.4 Y4.2 I0.4 J-0.3
N3245 X6.5 Y4.5 I-0.4 J0.3
N3250 G1 Z-0.375 F20
N3255 G3 X5.6 Y4.8 I-0.5 F40
N3260 X6.4 Y4.2 I0.4 J-0.3
N3265 X6.5 Y4.5 I-0.4 J0.3
N3270 G1 Z-0.5 F20
N3275 G3 X5.6 Y4.8 I-0.5 F40
N3280 X6.4 Y4.2 I0.4 J-0.3
N3285 X6.5 Y4.5 I-0.4 J0.3
N3290 G0 Z0.6

(2D Contour4)
N3300 M8
N3305 X36 Y-0.125
N3310 Z0.6
N3315 Z0.2
N3320 G1 Z0.1644 F20
N3325 Z-0.125
N3330 X0 F40
N3335 G2 X-0.125 Y0 J0.125
N3340 G1 Y14
N3345 G2 X0 Y14.125 I0.125
N3350 G1 X36
N3355 G2 X36.125 Y14 J-0.125
N3360 G1 Y0
N3365 G2 X36 Y-0.125 I-0.125
N3370 G1 Z-0.25 F20
N3375 X0 F40
N3380 G2 X-0.125 Y0 J0.125
N3385 G1 Y14
N3390 G2 X0 Y14.125 I0.125
N3395 G1 X36
N3400 G2 X36.125 Y14 J-0.125
N3405 G1 Y0
N3410 G2 X36 Y-0.125 I-0.125
N3415 G1 Z-0.375 F20
N3420 X0 F40
N3425 G2 X-0.125 Y0 J0.125
N3430 G1 Y14
N3435 G2 X0 Y14.125 I0.125
N3440 G1 X36
N3445 G2 X36.125 Y14 J-0.125
N3450 G1 Y0
N3455 G2 X36 Y-0.125 I-0.125
N3460 G1 Z-0.5 F20
N3465 X0 F40
N3470 G2 X-0.125 Y0 J0.125
N3475 G1 Y14
N3480 G2 X0 Y14.125 I0.125
N3485 G1 X36
N3490 G2 X36.125 Y14 J-0.125
N3495 G1 Y0
N3500 G2 X36 Y-0.125 I-0.125
N3505 G0 Z0.6
N3515 M9
N3520 G28 G91 Z0
N3525 G28 X0 Y0
N3530 M30
%
