%
(CUT_theRest)
(T3  D=0.5 CR=0 - ZMIN=-0.5 - flat end mill)
N10 G90 G94
N15 G17
N20 G20
N25 G28 G91 Z0
N30 G90

(2D Contour1)
N35 M9
N40 T3 M6
N45 S3000 M3
N50 G54
N55 M8
N65 G0 X14.4484 Y27.4018
N70 G43 Z0.6 H3
N75 Z0.2
N80 G1 Z0.0394 F15
N85 Z-0.2
N90 G18 G3 X14.3984 Z-0.25 I-0.05
N95 G1 X14.3484
N100 G17 G3 X14.2984 Y27.3518 J-0.05
N105 G1 Y21.3518 F30
N110 G2 X14.0484 Y21.1018 I-0.25
N115 G1 X2.0484
N120 G2 X1.7984 Y21.3518 J0.25
N125 G1 Y27.3518
N130 G2 X2.0484 Y27.6018 I0.25
N135 G1 X14.0484
N140 G2 X14.2984 Y27.3518 J-0.25
N145 G3 X14.3484 Y27.3018 I0.05
N150 G1 X14.3984
N155 G18 G2 X14.4484 Z-0.2 K0.05
N160 G0 Z0.2
N165 X24.6484 Y21.3018
N170 G1 Z0.0394 F15
N175 Z-0.2
N180 G2 X24.6984 Z-0.25 I0.05
N185 G1 X24.7484
N190 G17 G3 X24.7984 Y21.3518 J0.05
N195 G1 Y27.3518 F30
N200 G2 X25.0484 Y27.6018 I0.25
N205 G1 X37.0484
N210 G2 X37.2984 Y27.3518 J-0.25
N215 G1 Y21.3518
N220 G2 X37.0484 Y21.1018 I-0.25
N225 G1 X25.0484
N230 G2 X24.7984 Y21.3518 J0.25
N235 G3 X24.7484 Y21.4018 I-0.05
N240 G1 X24.6984
N245 G18 G3 X24.6484 Z-0.2 K0.05
N250 G0 Z0.6
N255 G17

(2D Contour2)
N260 M8
N265 G0 X14.2456 Y27.6179
N270 Z0.6
N275 Z0.2
N280 G1 Z0.0394 F15
N285 Z-0.2
N290 X14.2458 Y27.6177 Z-0.2056
N295 X14.2464 Y27.617 Z-0.2111
N300 X14.2474 Y27.6158 Z-0.2165
N305 X14.2489 Y27.6142 Z-0.2217
N310 X14.2507 Y27.6122 Z-0.2266
N315 X14.2528 Y27.6097 Z-0.2312
N320 X14.2553 Y27.6069 Z-0.2354
N325 X14.2581 Y27.6038 Z-0.2391
N330 X14.2611 Y27.6004 Z-0.2423
N335 X14.2644 Y27.5967 Z-0.245
N340 X14.2678 Y27.5928 Z-0.2472
N345 X14.2714 Y27.5888 Z-0.2487
N350 X14.275 Y27.5847 Z-0.2497
N355 X14.2787 Y27.5805 Z-0.25
N360 X14.3119 Y27.5431
N365 G3 X14.3825 Y27.5389 I0.0374 J0.0332
N370 G2 X14.5484 Y27.6018 I0.1659 J-0.187 F30
N375 G1 X24.5484
N380 G2 X24.7984 Y27.3518 J-0.25
N385 G1 Y21.1018
N390 X37.0484
N395 G2 X37.2984 Y20.8518 J-0.25
N400 G1 Y16.3518
N405 G2 X37.0484 Y16.1018 I-0.25
N410 G1 X2.0484
N415 G2 X1.7984 Y16.3518 J0.25
N420 G1 Y20.8518
N425 G2 X2.0484 Y21.1018 I0.25
N430 G1 X14.2984
N435 Y27.3518
N440 G2 X14.3825 Y27.5389 I0.25
N445 G3 X14.3867 Y27.6094 I-0.0332 J0.0374
N450 G1 X14.3536 Y27.6468
N455 X14.3498 Y27.651 Z-0.2497
N460 X14.3462 Y27.6552 Z-0.2487
N465 X14.3426 Y27.6592 Z-0.2472
N470 X14.3392 Y27.6631 Z-0.245
N475 X14.3359 Y27.6667 Z-0.2423
N480 X14.3329 Y27.6702 Z-0.2391
N485 X14.3301 Y27.6733 Z-0.2354
N490 X14.3276 Y27.6761 Z-0.2312
N495 X14.3255 Y27.6785 Z-0.2266
N500 X14.3237 Y27.6805 Z-0.2217
N505 X14.3223 Y27.6822 Z-0.2165
N510 X14.3212 Y27.6833 Z-0.2111
N515 X14.3206 Y27.684 Z-0.2056
N520 X14.3204 Y27.6843 Z-0.2
N525 G0 Z0.6

(2D Contour3)
N535 M8
N540 X15.1701 Y7.1821
N545 Z0.6
N550 Z0.2
N555 G1 Z0.0394 F15
N560 Z-0.2
N565 Y7.1818 Z-0.2056
N570 X15.1703 Y7.1808 Z-0.2111
N575 X15.1705 Y7.1793 Z-0.2165
N580 X15.1707 Y7.1772 Z-0.2217
N585 X15.171 Y7.1745 Z-0.2266
N590 X15.1714 Y7.1713 Z-0.2312
N595 X15.1719 Y7.1675 Z-0.2354
N600 X15.1724 Y7.1634 Z-0.2391
N605 X15.173 Y7.1589 Z-0.2423
N610 X15.1736 Y7.154 Z-0.245
N615 X15.1742 Y7.1488 Z-0.2472
N620 X15.1748 Y7.1435 Z-0.2487
N625 X15.1755 Y7.138 Z-0.2497
N630 X15.1762 Y7.1325 Z-0.25
N635 X15.1823 Y7.0828
N640 G3 X15.238 Y7.0393 I0.0496 J0.0061
N645 G2 X15.2684 Y7.0411 I0.0304 J-0.2481 F30
N650 G1 X25.2684
N655 G2 X25.5184 Y6.7911 J-0.25
N660 G1 Y2.2911
N665 G2 X25.2684 Y2.0411 I-0.25
N670 G1 X15.2684
N675 G2 X15.0184 Y2.2911 J0.25
N680 G1 Y6.7911
N685 G2 X15.238 Y7.0393 I0.25
N690 G3 X15.2815 Y7.095 I-0.0061 J0.0496
N695 G1 X15.2755 Y7.1446
N700 X15.2748 Y7.1502 Z-0.2497
N705 X15.2741 Y7.1557 Z-0.2487
N710 X15.2734 Y7.161 Z-0.2472
N715 X15.2728 Y7.1662 Z-0.245
N720 X15.2722 Y7.171 Z-0.2423
N725 X15.2717 Y7.1756 Z-0.2391
N730 X15.2711 Y7.1797 Z-0.2354
N735 X15.2707 Y7.1834 Z-0.2312
N740 X15.2703 Y7.1866 Z-0.2266
N745 X15.27 Y7.1893 Z-0.2217
N750 X15.2697 Y7.1915 Z-0.2165
N755 X15.2695 Y7.193 Z-0.2111
N760 X15.2694 Y7.1939 Z-0.2056
N765 Y7.1943 Z-0.2
N770 G0 Z0.2
N775 X39.7788 Y7.0723
N780 G1 Z0.0394 F15
N785 Z-0.2
N790 X39.7791 Z-0.2056
N795 X39.78 Y7.0722 Z-0.2111
N800 X39.7816 Z-0.2165
N805 X39.7837 Y7.0721 Z-0.2217
N810 X39.7864 Y7.072 Z-0.2266
N815 X39.7897 Y7.0719 Z-0.2312
N820 X39.7934 Y7.0718 Z-0.2354
N825 X39.7976 Y7.0716 Z-0.2391
N830 X39.8022 Y7.0714 Z-0.2423
N835 X39.8071 Y7.0713 Z-0.245
N840 X39.8122 Y7.0711 Z-0.2472
N845 X39.8176 Y7.0709 Z-0.2487
N850 X39.8232 Y7.0707 Z-0.2497
N855 X39.8287 Y7.0705 Z-0.25
N860 X39.8787 Y7.0687
N865 G3 X39.9305 Y7.1169 I0.0018 J0.05
N870 G2 X40.1808 Y7.3579 I0.2498 J-0.009 F30
N875 G1 X44.6808 Y7.3492
N880 G2 X44.9303 Y7.0987 I-0.0005 J-0.25
N885 G1 X44.9217 Y2.5988
N890 G2 X44.6712 Y2.3492 I-0.25 J0.0005
N895 G1 X40.1712 Y2.3579
N900 G2 X39.9217 Y2.6084 I0.0005 J0.25
N905 G1 X39.9303 Y7.1084
N910 G2 X39.9305 Y7.1169 I0.25 J-0.0005
N915 G3 X39.8823 Y7.1686 I-0.05 J0.0018
N920 G1 X39.8323 Y7.1704
N925 X39.8267 Y7.1706 Z-0.2497
N930 X39.8212 Y7.1708 Z-0.2487
N935 X39.8158 Y7.171 Z-0.2472
N940 X39.8107 Y7.1712 Z-0.245
N945 X39.8057 Y7.1714 Z-0.2423
N950 X39.8012 Y7.1715 Z-0.2391
N955 X39.797 Y7.1717 Z-0.2354
N960 X39.7933 Y7.1718 Z-0.2312
N965 X39.79 Y7.1719 Z-0.2266
N970 X39.7873 Y7.172 Z-0.2217
N975 X39.7852 Y7.1721 Z-0.2165
N980 X39.7836 Y7.1722 Z-0.2111
N985 X39.7827 Z-0.2056
N990 X39.7824 Z-0.2
N995 G0 Z0.2
N1000 X39.7906 Y13.6336
N1005 G1 Z0.0394 F15
N1010 Z-0.2
N1015 X39.7909 Y13.6335 Z-0.2056
N1020 X39.7918 Y13.6333 Z-0.2111
N1025 X39.7934 Y13.633 Z-0.2165
N1030 X39.7955 Y13.6326 Z-0.2217
N1035 X39.7981 Y13.6321 Z-0.2266
N1040 X39.8013 Y13.6315 Z-0.2312
N1045 X39.805 Y13.6308 Z-0.2354
N1050 X39.8091 Y13.63 Z-0.2391
N1055 X39.8136 Y13.6292 Z-0.2423
N1060 X39.8184 Y13.6283 Z-0.245
N1065 X39.8235 Y13.6273 Z-0.2472
N1070 X39.8288 Y13.6263 Z-0.2487
N1075 X39.8342 Y13.6253 Z-0.2497
N1080 X39.8397 Y13.6242 Z-0.25
N1085 X39.8889 Y13.6149
N1090 G3 X39.9473 Y13.6546 I0.0093 J0.0491
N1095 G2 X40.1934 Y13.8579 I0.2456 J-0.0467 F30
N1100 G1 X44.6934 Y13.8492
N1105 X44.7057 Y13.8489
N1110 X44.7179 Y13.848
N1115 X44.7301 Y13.8464
N1120 X44.7422 Y13.8443
N1125 X44.7541 Y13.8416
N1130 X44.7659 Y13.8383
N1135 X44.7776 Y13.8344
N1140 X44.789 Y13.83
N1145 X44.8002 Y13.825
N1150 X44.8112 Y13.8195
N1155 X44.8219 Y13.8134
N1160 X44.8322 Y13.8068
N1165 X44.8422 Y13.7997
N1170 X44.8519 Y13.7922
N1175 X44.8612 Y13.7841
N1180 X44.87 Y13.7757
N1185 X44.8785 Y13.7667
N1190 X44.8865 Y13.7574
N1195 X44.894 Y13.7478
N1200 X44.901 Y13.7377
N1205 X44.9076 Y13.7273
N1210 X44.9136 Y13.7166
N1215 X44.9191 Y13.7057
N1220 X44.9241 Y13.6944
N1225 X44.9285 Y13.683
N1230 X44.9323 Y13.6713
N1235 X44.9355 Y13.6595
N1240 X44.9382 Y13.6475
N1245 X44.9403 Y13.6354
N1250 X44.9418 Y13.6232
N1255 X44.9426 Y13.611
N1260 X44.9429 Y13.5987
N1265 X44.9315 Y7.5987
N1270 G2 X44.681 Y7.3492 I-0.25 J0.0005
N1275 G1 X40.181 Y7.3579
N1280 G2 X39.9315 Y7.6084 I0.0005 J0.25
N1285 G1 X39.9429 Y13.6084
N1290 G2 X39.9473 Y13.6546 I0.25 J-0.0005
N1295 G3 X39.9075 Y13.7131 I-0.0491 J0.0093
N1300 G1 X39.8584 Y13.7224
N1305 X39.8529 Y13.7235 Z-0.2497
N1310 X39.8475 Y13.7245 Z-0.2487
N1315 X39.8422 Y13.7255 Z-0.2472
N1320 X39.8371 Y13.7265 Z-0.245
N1325 X39.8323 Y13.7274 Z-0.2423
N1330 X39.8278 Y13.7283 Z-0.2391
N1335 X39.8237 Y13.7291 Z-0.2354
N1340 X39.82 Y13.7297 Z-0.2312
N1345 X39.8168 Y13.7304 Z-0.2266
N1350 X39.8142 Y13.7309 Z-0.2217
N1355 X39.8121 Y13.7313 Z-0.2165
N1360 X39.8105 Y13.7316 Z-0.2111
N1365 X39.8096 Y13.7317 Z-0.2056
N1370 X39.8093 Y13.7318 Z-0.2
N1375 G0 Z0.2
N1380 X39.9515 Y22.177
N1385 G1 Z0.0394 F15
N1390 Z-0.2
N1395 X39.9519 Z-0.2056
N1400 X39.9528 Y22.1769 Z-0.2111
N1405 X39.9544 Z-0.2165
N1410 X39.9565 Z-0.2217
N1415 X39.9592 Y22.1768 Z-0.2266
N1420 X39.9625 Z-0.2312
N1425 X39.9662 Y22.1767 Z-0.2354
N1430 X39.9704 Y22.1766 Z-0.2391
N1435 X39.9749 Z-0.2423
N1440 X39.9798 Y22.1765 Z-0.245
N1445 X39.985 Y22.1764 Z-0.2472
N1450 X39.9904 Y22.1763 Z-0.2487
N1455 X39.9959 Y22.1762 Z-0.2497
N1460 X40.0015 Y22.1761 Z-0.25
N1465 X40.0515 Y22.1752
N1470 G3 X40.1024 Y22.2243 I0.0009 J0.05
N1475 G2 X40.3527 Y22.47 I0.25 J-0.0044 F30
N1480 G1 X44.8527 Y22.4631
N1485 G2 X45.1024 Y22.2127 I-0.0004 J-0.25
N1490 G1 X45.0933 Y16.2127
N1495 G2 X44.8429 Y15.9631 I-0.25 J0.0004
N1500 G1 X40.3429 Y15.97
N1505 G2 X40.0933 Y16.2204 I0.0004 J0.25
N1510 G1 X40.1024 Y22.2203
N1515 G2 Y22.2243 I0.25 J-0.0004
N1520 G3 X40.0533 Y22.2752 I-0.05 J0.0009
N1525 G1 X40.0033 Y22.2761
N1530 X39.9977 Y22.2762 Z-0.2497
N1535 X39.9922 Y22.2763 Z-0.2487
N1540 X39.9868 Y22.2764 Z-0.2472
N1545 X39.9816 Y22.2765 Z-0.245
N1550 X39.9767 Z-0.2423
N1555 X39.9721 Y22.2766 Z-0.2391
N1560 X39.9679 Y22.2767 Z-0.2354
N1565 X39.9642 Y22.2768 Z-0.2312
N1570 X39.961 Z-0.2266
N1575 X39.9582 Y22.2769 Z-0.2217
N1580 X39.9561 Z-0.2165
N1585 X39.9546 Z-0.2111
N1590 X39.9536 Z-0.2056
N1595 X39.9533 Y22.277 Z-0.2
N1600 G0 Z0.2
N1605 X40.9256 Y27.4707
N1610 G1 Z0.0394 F15
N1615 Z-0.2
N1620 X40.9253 Y27.4706 Z-0.2056
N1625 X40.9245 Y27.4701 Z-0.2111
N1630 X40.9232 Y27.4693 Z-0.2165
N1635 X40.9213 Y27.4682 Z-0.2217
N1640 X40.919 Y27.4667 Z-0.2266
N1645 X40.9163 Y27.465 Z-0.2312
N1650 X40.9131 Y27.4631 Z-0.2354
N1655 X40.9095 Y27.4609 Z-0.2391
N1660 X40.9056 Y27.4585 Z-0.2423
N1665 X40.9014 Y27.456 Z-0.245
N1670 X40.897 Y27.4533 Z-0.2472
N1675 X40.8924 Y27.4505 Z-0.2487
N1680 X40.8877 Y27.4476 Z-0.2497
N1685 X40.8829 Y27.4447 Z-0.25
N1690 X40.8402 Y27.4186
N1695 G3 X40.8236 Y27.3499 I0.0261 J-0.0427
N1700 G2 X40.8602 Y27.2192 I-0.2134 J-0.1303 F30
N1705 G1 X40.8532 Y22.7192
N1710 X40.8528 Y22.7069
N1715 X40.8519 Y22.6947
N1720 X40.8504 Y22.6825
N1725 X40.8483 Y22.6705
N1730 X40.8456 Y22.6585
N1735 X40.8423 Y22.6467
N1740 X40.8384 Y22.635
N1745 X40.834 Y22.6236
N1750 X40.829 Y22.6124
N1755 X40.8235 Y22.6014
N1760 X40.8174 Y22.5908
N1765 X40.8108 Y22.5804
N1770 X40.8037 Y22.5704
N1775 X40.7962 Y22.5607
N1780 X40.7881 Y22.5514
N1785 X40.7797 Y22.5426
N1790 X40.7708 Y22.5341
N1795 X40.7615 Y22.5261
N1800 X40.7518 Y22.5186
N1805 X40.7417 Y22.5115
N1810 X40.7314 Y22.505
N1815 X40.7207 Y22.499
N1820 X40.7097 Y22.4935
N1825 X40.6985 Y22.4885
N1830 X40.687 Y22.4841
N1835 X40.6754 Y22.4803
N1840 X40.6635 Y22.477
N1845 X40.6516 Y22.4743
N1850 X40.6395 Y22.4723
N1855 X40.6273 Y22.4708
N1860 X40.6151 Y22.4699
N1865 X40.6028 Y22.4696
N1870 X40.3528 Y22.47
N1875 G2 X40.1031 Y22.7204 I0.0004 J0.25
N1880 G1 X40.1102 Y27.2204
N1885 G2 X40.3606 Y27.47 I0.25 J-0.0004
N1890 G1 X40.6106 Y27.4696
N1895 G2 X40.8236 Y27.3499 I-0.0004 J-0.25
N1900 G3 X40.8923 Y27.3333 I0.0427 J0.0261
N1905 G1 X40.935 Y27.3593
N1910 X40.9398 Y27.3622 Z-0.2497
N1915 X40.9445 Y27.3651 Z-0.2487
N1920 X40.9491 Y27.3679 Z-0.2472
N1925 X40.9535 Y27.3706 Z-0.245
N1930 X40.9577 Y27.3732 Z-0.2423
N1935 X40.9616 Y27.3756 Z-0.2391
N1940 X40.9652 Y27.3778 Z-0.2354
N1945 X40.9684 Y27.3797 Z-0.2312
N1950 X40.9711 Y27.3814 Z-0.2266
N1955 X40.9735 Y27.3828 Z-0.2217
N1960 X40.9753 Y27.3839 Z-0.2165
N1965 X40.9766 Y27.3847 Z-0.2111
N1970 X40.9774 Y27.3852 Z-0.2056
N1975 X40.9777 Y27.3854 Z-0.2
N1980 G0 Z0.6

(2D Contour8)
N1990 M8
N1995 X45.2603 Y27.2624
N2000 Z0.6
N2005 Z0.2
N2010 G1 Z0.0394 F15
N2015 Z-0.2
N2020 X45.26 Z-0.2056
N2025 X45.2591 Z-0.2111
N2030 X45.2575 Z-0.2165
N2035 X45.2554 Z-0.2217
N2040 X45.2527 Y27.2625 Z-0.2266
N2045 X45.2494 Z-0.2312
N2050 X45.2457 Z-0.2354
N2055 X45.2415 Z-0.2391
N2060 X45.2369 Z-0.2423
N2065 X45.232 Z-0.245
N2070 X45.2268 Z-0.2472
N2075 X45.2214 Z-0.2487
N2080 X45.2159 Z-0.2497
N2085 X45.2103 Z-0.25
N2090 X45.1603 Y27.2626
N2095 G3 X45.1102 Y27.2127 I-0.0001 J-0.05
N2100 G1 X45.1031 Y22.7127 F30
N2105 G2 X44.8528 Y22.4631 I-0.25 J0.0004
N2110 G1 X43.6028 Y22.465
N2115 G2 X43.3532 Y22.7154 I0.0004 J0.25
N2120 G1 X43.3602 Y27.2154
N2125 G2 X43.6106 Y27.465 I0.25 J-0.0004
N2130 G1 X44.8606 Y27.4631
N2135 G2 X45.1102 Y27.2127 I-0.0004 J-0.25
N2140 G1 X45.1105 Y27.2071
N2145 X45.1115 Y27.2016
N2150 X45.113 Y27.1962
N2155 X45.1152 Y27.191
N2160 X45.1179 Y27.1861
N2165 X45.1211 Y27.1815
N2170 X45.1248 Y27.1773
N2175 X45.129 Y27.1736
N2180 X45.1336 Y27.1703
N2185 X45.1385 Y27.1676
N2190 X45.1436 Y27.1654
N2195 X45.149 Y27.1639
N2200 X45.1546 Y27.1629
N2205 X45.1602 Y27.1626
N2210 X45.2102 Y27.1625
N2215 X45.2158 Z-0.2497
N2220 X45.2213 Z-0.2487
N2225 X45.2267 Z-0.2472
N2230 X45.2319 Z-0.245
N2235 X45.2368 Z-0.2423
N2240 X45.2413 Z-0.2391
N2245 X45.2455 Z-0.2354
N2250 X45.2492 Z-0.2312
N2255 X45.2525 Z-0.2266
N2260 X45.2552 Y27.1624 Z-0.2217
N2265 X45.2574 Z-0.2165
N2270 X45.2589 Z-0.2111
N2275 X45.2598 Z-0.2056
N2280 X45.2602 Z-0.2
N2285 G0 Z0.6

(2D Pocket2)
N2295 M8
N2300 X41.3817 Y27.4684
N2305 Z0.6
N2310 Z0.2
N2315 G1 Z0.15 F15
N2320 X41.3814 Z0.1445
N2325 X41.3805 Z0.1391
N2330 X41.379 Z0.1338
N2335 X41.377 Z0.1287
N2340 X41.3744 Z0.1239
N2345 X41.3713 Z0.1194
N2350 X41.3677 Z0.1152
N2355 X41.3637 Z0.1115
N2360 X41.3593 Z0.1082
N2365 X41.3545 Z0.1055
N2370 X41.3495 Z0.1032
N2375 X41.3443 Y27.4685 Z0.1016
N2380 X41.3389 Z0.1005
N2385 X41.3335 Z0.1
N2390 X40.6144 Y27.4696 Z0.0749
N2395 G2 X40.8602 Y27.2192 Z0.0613 I-0.0042 J-0.25
N2400 G1 X40.8601 Y27.1522 Z0.059
N2405 G2 X41.1102 Y27.2188 Z0.0498 I0.2493 J-0.4334
N2410 G1 X43.1102 Y27.2157 Z-0.02
N2415 G2 X43.2636 Y27.1914 Z-0.0255 I-0.0008 J-0.5
N2420 X43.3601 Y27.1484 Z-0.0292 I-0.1542 J-0.4756
N2425 G1 X43.3602 Y27.2154 Z-0.0315
N2430 G2 X43.6079 Y27.465 Z-0.0451 I0.25 J-0.0004
N2435 G1 X40.6144 Y27.4696 Z-0.1496
N2440 G2 X40.8602 Y27.2192 Z-0.1632 I-0.0042 J-0.25
N2445 G1 X40.8601 Y27.1522 Z-0.1656
N2450 G2 X41.1102 Y27.2188 Z-0.1747 I0.2493 J-0.4334
N2455 G1 X43.1102 Y27.2157 Z-0.2446
N2460 G2 X43.2636 Y27.1914 Z-0.25 I-0.0008 J-0.5
N2465 X43.3601 Y27.1484 I-0.1542 J-0.4756 F30
N2470 G1 X43.3602 Y27.2154
N2475 G2 X43.6079 Y27.465 I0.25 J-0.0004
N2480 G1 X40.6144 Y27.4696
N2485 G2 X40.8602 Y27.2192 I-0.0042 J-0.25
N2490 G1 X40.8601 Y27.1522
N2495 G2 X41.1102 Y27.2188 I0.2493 J-0.4334
N2500 G1 X43.1102 Y27.2157
N2505 G2 X43.2636 Y27.1914 I-0.0008 J-0.5
N2510 G3 X43.2745 Y27.1892 Z-0.2487 I0.0154 J0.0476
N2515 X43.2851 Y27.1893 Z-0.245 I0.0045 J0.0498
N2520 X43.2943 Y27.1913 Z-0.2391 I-0.006 J0.0496
N2525 X43.3016 Y27.1943 Z-0.2312 I-0.0153 J0.0476
N2530 X43.3068 Y27.1973 Z-0.2217 I-0.0226 J0.0446
N2535 X43.3098 Y27.1995 Z-0.2111 I-0.0277 J0.0416
N2540 X43.3108 Y27.2003 Z-0.2 I-0.0307 J0.0395
N2545 G0 Z0.2
N2550 X43.4094 Y22.557
N2555 G1 Z0.15 F15
N2560 G2 X43.4087 Y22.5579 Z0.1391 I0.1937 J0.158
N2565 X43.4065 Y22.5607 Z0.1287 I0.1945 J0.1571
N2570 X43.403 Y22.5652 Z0.1194 I0.1967 J0.1543
N2575 X43.3985 Y22.5714 Z0.1115 I0.2001 J0.1498
N2580 X43.3934 Y22.5789 Z0.1055 I0.2046 J0.1436
N2585 X43.388 Y22.5876 Z0.1016 I0.2097 J0.1361
N2590 X43.3827 Y22.5971 Z0.1 I0.2151 J0.1274
N2595 X43.3532 Y22.7154 Z0.0957 I0.2204 J0.1179
N2600 G1 X43.3533 Y22.7824 Z0.0934
N2605 G2 X43.1032 Y22.7158 Z0.0842 I-0.2493 J0.4334
N2610 G1 X41.1032 Y22.7188 Z0.0144
N2615 G2 X40.8533 Y22.7862 Z0.0052 I0.0008 J0.5
N2620 G1 X40.8532 Y22.7192 Z0.0029
N2625 X40.8528 Y22.7069 Z0.0025
N2630 X40.8519 Y22.6947 Z0.002
N2635 X40.8504 Y22.6825 Z0.0016
N2640 X40.8483 Y22.6705 Z0.0012
N2645 X40.8456 Y22.6585 Z0.0008
N2650 X40.8423 Y22.6467 Z0.0003
N2655 X40.8384 Y22.635 Z-0.0001
N2660 X40.834 Y22.6236 Z-0.0005
N2665 X40.829 Y22.6124 Z-0.001
N2670 X40.8235 Y22.6014 Z-0.0014
N2675 X40.8174 Y22.5908 Z-0.0018
N2680 X40.8108 Y22.5804 Z-0.0022
N2685 X40.8037 Y22.5704 Z-0.0027
N2690 X40.7962 Y22.5607 Z-0.0031
N2695 X40.7881 Y22.5514 Z-0.0035
N2700 X40.7797 Y22.5426 Z-0.004
N2705 X40.7708 Y22.5341 Z-0.0044
N2710 X40.7615 Y22.5261 Z-0.0048
N2715 X40.7518 Y22.5186 Z-0.0052
N2720 X40.7417 Y22.5115 Z-0.0057
N2725 X40.7314 Y22.505 Z-0.0061
N2730 X40.7207 Y22.499 Z-0.0065
N2735 X40.7097 Y22.4935 Z-0.007
N2740 X40.6985 Y22.4885 Z-0.0074
N2745 X40.687 Y22.4841 Z-0.0078
N2750 X40.6754 Y22.4803 Z-0.0082
N2755 X40.6635 Y22.477 Z-0.0087
N2760 X40.6516 Y22.4743 Z-0.0091
N2765 X40.6395 Y22.4723 Z-0.0095
N2770 X40.6273 Y22.4708 Z-0.01
N2775 X40.6151 Y22.4699 Z-0.0104
N2780 X40.6028 Y22.4696 Z-0.0108
N2785 X43.6003 Y22.465 Z-0.1155
N2790 G2 X43.3532 Y22.7154 Z-0.1291 I0.0029 J0.25
N2795 G1 X43.3533 Y22.7824 Z-0.1315
N2800 G2 X43.1032 Y22.7158 Z-0.1406 I-0.2493 J0.4334
N2805 G1 X41.1032 Y22.7188 Z-0.2104
N2810 G2 X40.8533 Y22.7862 Z-0.2196 I0.0008 J0.5
N2815 G1 X40.8532 Y22.7192 Z-0.2219
N2820 X40.8528 Y22.7069 Z-0.2224
N2825 X40.8519 Y22.6947 Z-0.2228
N2830 X40.8504 Y22.6825 Z-0.2232
N2835 X40.8483 Y22.6705 Z-0.2236
N2840 X40.8456 Y22.6585 Z-0.2241
N2845 X40.8423 Y22.6467 Z-0.2245
N2850 X40.8384 Y22.635 Z-0.2249
N2855 X40.834 Y22.6236 Z-0.2254
N2860 X40.829 Y22.6124 Z-0.2258
N2865 X40.8235 Y22.6014 Z-0.2262
N2870 X40.8174 Y22.5908 Z-0.2266
N2875 X40.8108 Y22.5804 Z-0.2271
N2880 X40.8037 Y22.5704 Z-0.2275
N2885 X40.7962 Y22.5607 Z-0.2279
N2890 X40.7881 Y22.5514 Z-0.2284
N2895 X40.7797 Y22.5426 Z-0.2288
N2900 X40.7708 Y22.5341 Z-0.2292
N2905 X40.7615 Y22.5261 Z-0.2296
N2910 X40.7518 Y22.5186 Z-0.2301
N2915 X40.7417 Y22.5115 Z-0.2305
N2920 X40.7314 Y22.505 Z-0.2309
N2925 X40.7207 Y22.499 Z-0.2314
N2930 X40.7097 Y22.4935 Z-0.2318
N2935 X40.6985 Y22.4885 Z-0.2322
N2940 X40.687 Y22.4841 Z-0.2326
N2945 X40.6754 Y22.4803 Z-0.2331
N2950 X40.6635 Y22.477 Z-0.2335
N2955 X40.6516 Y22.4743 Z-0.2339
N2960 X40.6395 Y22.4723 Z-0.2343
N2965 X40.6273 Y22.4708 Z-0.2348
N2970 X40.6151 Y22.4699 Z-0.2352
N2975 X40.6028 Y22.4696 Z-0.2356
N2980 X41.0141 Y22.469 Z-0.25
N2985 X43.6003 Y22.465 F30
N2990 G2 X43.3532 Y22.7154 I0.0029 J0.25
N2995 G1 X43.3533 Y22.7824
N3000 G2 X43.1032 Y22.7158 I-0.2493 J0.4334
N3005 G1 X41.1032 Y22.7188
N3010 G2 X40.8533 Y22.7862 I0.0008 J0.5
N3015 G1 X40.8532 Y22.7192
N3020 X40.8528 Y22.7069
N3025 X40.8519 Y22.6947
N3030 X40.8504 Y22.6825
N3035 X40.8483 Y22.6705
N3040 X40.8456 Y22.6585
N3045 X40.8423 Y22.6467
N3050 X40.8384 Y22.635
N3055 X40.834 Y22.6236
N3060 X40.829 Y22.6124
N3065 X40.8235 Y22.6014
N3070 X40.8174 Y22.5908
N3075 X40.8108 Y22.5804
N3080 X40.8037 Y22.5704
N3085 X40.7962 Y22.5607
N3090 X40.7881 Y22.5514
N3095 X40.7797 Y22.5426
N3100 X40.7708 Y22.5341
N3105 X40.7615 Y22.5261
N3110 X40.7518 Y22.5186
N3115 X40.7417 Y22.5115
N3120 X40.7314 Y22.505
N3125 X40.7207 Y22.499
N3130 X40.7097 Y22.4935
N3135 X40.6985 Y22.4885
N3140 X40.687 Y22.4841
N3145 X40.6754 Y22.4803
N3150 X40.6635 Y22.477
N3155 X40.6516 Y22.4743
N3160 X40.6395 Y22.4723
N3165 X40.6273 Y22.4708
N3170 X40.6151 Y22.4699
N3175 X40.6028 Y22.4696
N3180 X41.0141 Y22.469
N3185 G3 X41.0252 Y22.4702 Z-0.2487 I0.0001 J0.05
N3190 X41.0352 Y22.4736 Z-0.245 I-0.011 J0.0488
N3195 X41.0434 Y22.4783 Z-0.2391 I-0.0209 J0.0454
N3200 X41.0494 Y22.4834 Z-0.2312 I-0.0291 J0.0406
N3205 X41.0534 Y22.4879 Z-0.2217 I-0.0352 J0.0355
N3210 X41.0556 Y22.4909 Z-0.2111 I-0.0391 J0.0311
N3215 X41.0563 Y22.4919 Z-0.2 I-0.0413 J0.0281
N3220 G0 Z0.6

(2D Contour4)
N3230 M8
N3235 X28.4384 Y3.7411
N3240 Z0.6
N3245 Z0.2894
N3250 G1 Z-0.2 F15
N3255 G18 G2 X28.4884 Z-0.25 I0.05
N3260 G1 X28.5384
N3265 G17 G3 X28.5884 Y3.7911 J0.05
N3270 X28.0184 Y4.3611 I-0.57 F30
N3275 X27.4484 Y3.7911 J-0.57
N3280 X28.5884 I0.57
N3285 X28.5384 Y3.8411 I-0.05
N3290 G1 X28.4884
N3295 G18 G3 X28.4384 Z-0.2 K0.05
N3300 G1 Y3.7411
N3305 Z-0.45 F15
N3310 G2 X28.4884 Z-0.5 I0.05
N3315 G1 X28.5384
N3320 G17 G3 X28.5884 Y3.7911 J0.05
N3325 X28.0184 Y4.3611 I-0.57 F30
N3330 X27.4484 Y3.7911 J-0.57
N3335 X28.5884 I0.57
N3340 X28.5384 Y3.8411 I-0.05
N3345 G1 X28.4884
N3350 G18 G3 X28.4384 Z-0.45 K0.05
N3355 G0 Z0.2894
N3360 X12.9384 Y3.7411
N3365 G1 Z-0.2 F15
N3370 G2 X12.9884 Z-0.25 I0.05
N3375 G1 X13.0384
N3380 G17 G3 X13.0884 Y3.7911 J0.05
N3385 X12.1764 Y4.2471 I-0.57 F30
N3390 X12.8604 Y3.3351 I0.342 J-0.456
N3395 X13.0884 Y3.7911 I-0.342 J0.456
N3400 X13.0384 Y3.8411 I-0.05
N3405 G1 X12.9884
N3410 G18 G3 X12.9384 Z-0.2 K0.05
N3415 G1 Y3.7411
N3420 Z-0.45 F15
N3425 G2 X12.9884 Z-0.5 I0.05
N3430 G1 X13.0384
N3435 G17 G3 X13.0884 Y3.7911 J0.05
N3440 X12.1764 Y4.2471 I-0.57 F30
N3445 X12.8604 Y3.3351 I0.342 J-0.456
N3450 X13.0884 Y3.7911 I-0.342 J0.456
N3455 X13.0384 Y3.8411 I-0.05
N3460 G1 X12.9884
N3465 G18 G3 X12.9384 Z-0.45 K0.05
N3470 G0 Z0.2894
N3475 X41.258 Y25.7686
N3480 G1 Z-0.2 F15
N3485 X41.2576 Z-0.2056
N3490 X41.2567 Z-0.2111
N3495 X41.2552 Z-0.2165
N3500 X41.253 Z-0.2217
N3505 X41.2503 Z-0.2266
N3510 X41.247 Z-0.2312
N3515 X41.2433 Z-0.2354
N3520 X41.2391 Y25.7687 Z-0.2391
N3525 X41.2346 Z-0.2423
N3530 X41.2297 Z-0.245
N3535 X41.2245 Z-0.2472
N3540 X41.2191 Z-0.2487
N3545 X41.2136 Z-0.2497
N3550 X41.208 Z-0.25
N3555 X41.158 Y25.7688
N3560 G17 G3 X41.1079 Y25.7189 I-0.0001 J-0.05
N3565 G1 X41.1039 Y23.2188 F30
N3570 X43.1039 Y23.2158
N3575 X43.1094 Y26.7157
N3580 X41.1095 Y26.7188
N3585 X41.1079 Y25.7189
N3590 G3 X41.1578 Y25.6688 I0.05 J-0.0001
N3595 G1 X41.2078 Y25.6687
N3600 X41.2134 Z-0.2497
N3605 X41.2189 Z-0.2487
N3610 X41.2243 Z-0.2472
N3615 X41.2295 Z-0.245
N3620 X41.2344 Z-0.2423
N3625 X41.239 Z-0.2391
N3630 X41.2432 Y25.6686 Z-0.2354
N3635 X41.2469 Z-0.2312
N3640 X41.2501 Z-0.2266
N3645 X41.2528 Z-0.2217
N3650 X41.255 Z-0.2165
N3655 X41.2565 Z-0.2111
N3660 X41.2575 Z-0.2056
N3665 X41.2578 Z-0.2
N3670 X41.258 Y25.7686
N3675 Z-0.45 F15
N3680 X41.2576 Z-0.4556
N3685 X41.2567 Z-0.4611
N3690 X41.2552 Z-0.4665
N3695 X41.253 Z-0.4717
N3700 X41.2503 Z-0.4766
N3705 X41.247 Z-0.4812
N3710 X41.2433 Z-0.4854
N3715 X41.2391 Y25.7687 Z-0.4891
N3720 X41.2346 Z-0.4923
N3725 X41.2297 Z-0.495
N3730 X41.2245 Z-0.4972
N3735 X41.2191 Z-0.4987
N3740 X41.2136 Z-0.4997
N3745 X41.208 Z-0.5
N3750 X41.158 Y25.7688
N3755 G3 X41.1079 Y25.7189 I-0.0001 J-0.05
N3760 G1 X41.1039 Y23.2188 F30
N3765 X43.1039 Y23.2158
N3770 X43.1094 Y26.7157
N3775 X41.1095 Y26.7188
N3780 X41.1079 Y25.7189
N3785 G3 X41.1578 Y25.6688 I0.05 J-0.0001
N3790 G1 X41.2078 Y25.6687
N3795 X41.2134 Z-0.4997
N3800 X41.2189 Z-0.4987
N3805 X41.2243 Z-0.4972
N3810 X41.2295 Z-0.495
N3815 X41.2344 Z-0.4923
N3820 X41.239 Z-0.4891
N3825 X41.2432 Y25.6686 Z-0.4854
N3830 X41.2469 Z-0.4812
N3835 X41.2501 Z-0.4766
N3840 X41.2528 Z-0.4717
N3845 X41.255 Z-0.4665
N3850 X41.2565 Z-0.4611
N3855 X41.2575 Z-0.4556
N3860 X41.2578 Z-0.45
N3865 G0 Z0.6

(2D Contour5)
N3875 M8
N3880 X30.2926 Y28.2518
N3885 Z0.6
N3890 Z0.2894
N3895 G1 Z-0.2 F15
N3900 G19 G2 Y28.2018 Z-0.25 J-0.05
N3905 G1 Y28.1518
N3910 G17 G3 X30.3426 Y28.1018 I0.05
N3915 G1 X37.5484 F30
N3920 G2 X37.7984 Y27.8518 J-0.25
N3925 G1 Y15.8518
N3930 G2 X37.5484 Y15.6018 I-0.25
N3935 G1 X1.5484
N3940 G2 X1.2984 Y15.8518 J0.25
N3945 G1 Y27.8518
N3950 G2 X1.5484 Y28.1018 I0.25
N3955 G1 X30.3426
N3960 G3 X30.3926 Y28.1518 J0.05
N3965 G1 Y28.2018
N3970 G19 G3 Y28.2518 Z-0.2 K0.05
N3975 G1 X30.2926
N3980 Z-0.45 F15
N3985 G2 Y28.2018 Z-0.5 J-0.05
N3990 G1 Y28.1518
N3995 G17 G3 X30.3426 Y28.1018 I0.05
N4000 G1 X37.5484 F30
N4005 G2 X37.7984 Y27.8518 J-0.25
N4010 G1 Y15.8518
N4015 G2 X37.5484 Y15.6018 I-0.25
N4020 G1 X1.5484
N4025 G2 X1.2984 Y15.8518 J0.25
N4030 G1 Y27.8518
N4035 G2 X1.5484 Y28.1018 I0.25
N4040 G1 X30.3426
N4045 G3 X30.3926 Y28.1518 J0.05
N4050 G1 Y28.2018
N4055 G19 G3 Y28.2518 Z-0.45 K0.05
N4060 G0 Z0.2894
N4065 X29.7016 Y30.2353
N4070 G1 Z-0.2 F15
N4075 X29.7015 Y30.2355 Z-0.2056
N4080 X29.7009 Y30.2363 Z-0.2111
N4085 X29.6999 Y30.2375 Z-0.2165
N4090 X29.6986 Y30.2392 Z-0.2217
N4095 X29.6969 Y30.2413 Z-0.2266
N4100 X29.6949 Y30.2438 Z-0.2312
N4105 X29.6925 Y30.2468 Z-0.2354
N4110 X29.69 Y30.25 Z-0.2391
N4115 X29.6871 Y30.2536 Z-0.2423
N4120 X29.6841 Y30.2575 Z-0.245
N4125 X29.6808 Y30.2615 Z-0.2472
N4130 X29.6775 Y30.2657 Z-0.2487
N4135 X29.6741 Y30.2701 Z-0.2497
N4140 X29.6706 Y30.2745 Z-0.25
N4145 X29.6395 Y30.3136
N4150 G17 G3 X29.5693 Y30.3218 I-0.0392 J-0.0311
N4155 G2 X29.4139 Y30.2676 I-0.1553 J0.1959 F30
N4160 G1 X17.1639
N4165 G2 X16.9139 Y30.5176 J0.25
N4170 G1 Y35.0176
N4175 G2 X17.1639 Y35.2676 I0.25
N4180 G1 X29.4139
N4185 G2 X29.6639 Y35.0176 J-0.25
N4190 G1 Y30.5176
N4195 G2 X29.5693 Y30.3218 I-0.25
N4200 G3 X29.5612 Y30.2515 I0.0311 J-0.0392
N4205 G1 X29.5922 Y30.2123
N4210 X29.5957 Y30.2079 Z-0.2497
N4215 X29.5991 Y30.2036 Z-0.2487
N4220 X29.6025 Y30.1994 Z-0.2472
N4225 X29.6057 Y30.1953 Z-0.245
N4230 X29.6088 Y30.1915 Z-0.2423
N4235 X29.6116 Y30.1879 Z-0.2391
N4240 X29.6142 Y30.1846 Z-0.2354
N4245 X29.6165 Y30.1817 Z-0.2312
N4250 X29.6185 Y30.1792 Z-0.2266
N4255 X29.6202 Y30.177 Z-0.2217
N4260 X29.6215 Y30.1754 Z-0.2165
N4265 X29.6225 Y30.1741 Z-0.2111
N4270 X29.6231 Y30.1734 Z-0.2056
N4275 X29.6233 Y30.1732 Z-0.2
N4280 X29.7016 Y30.2353
N4285 Z-0.45 F15
N4290 X29.7015 Y30.2355 Z-0.4556
N4295 X29.7009 Y30.2363 Z-0.4611
N4300 X29.6999 Y30.2375 Z-0.4665
N4305 X29.6986 Y30.2392 Z-0.4717
N4310 X29.6969 Y30.2413 Z-0.4766
N4315 X29.6949 Y30.2438 Z-0.4812
N4320 X29.6925 Y30.2468 Z-0.4854
N4325 X29.69 Y30.25 Z-0.4891
N4330 X29.6871 Y30.2536 Z-0.4923
N4335 X29.6841 Y30.2575 Z-0.495
N4340 X29.6808 Y30.2615 Z-0.4972
N4345 X29.6775 Y30.2657 Z-0.4987
N4350 X29.6741 Y30.2701 Z-0.4997
N4355 X29.6706 Y30.2745 Z-0.5
N4360 X29.6395 Y30.3136
N4365 G3 X29.5693 Y30.3218 I-0.0392 J-0.0311
N4370 G2 X29.4139 Y30.2676 I-0.1553 J0.1959 F30
N4375 G1 X17.1639
N4380 G2 X16.9139 Y30.5176 J0.25
N4385 G1 Y35.0176
N4390 G2 X17.1639 Y35.2676 I0.25
N4395 G1 X29.4139
N4400 G2 X29.6639 Y35.0176 J-0.25
N4405 G1 Y30.5176
N4410 G2 X29.5693 Y30.3218 I-0.25
N4415 G3 X29.5612 Y30.2515 I0.0311 J-0.0392
N4420 G1 X29.5922 Y30.2123
N4425 X29.5957 Y30.2079 Z-0.4997
N4430 X29.5991 Y30.2036 Z-0.4987
N4435 X29.6025 Y30.1994 Z-0.4972
N4440 X29.6057 Y30.1953 Z-0.495
N4445 X29.6088 Y30.1915 Z-0.4923
N4450 X29.6116 Y30.1879 Z-0.4891
N4455 X29.6142 Y30.1846 Z-0.4854
N4460 X29.6165 Y30.1817 Z-0.4812
N4465 X29.6185 Y30.1792 Z-0.4766
N4470 X29.6202 Y30.177 Z-0.4717
N4475 X29.6215 Y30.1754 Z-0.4665
N4480 X29.6225 Y30.1741 Z-0.4611
N4485 X29.6231 Y30.1734 Z-0.4556
N4490 X29.6233 Y30.1732 Z-0.45
N4495 Z-0.2
N4500 X30.9516 Y30.2575
N4505 X30.9518 Y30.2578 Z-0.2056 F15
N4510 X30.9523 Y30.2586 Z-0.2111
N4515 X30.9531 Y30.2599 Z-0.2165
N4520 X30.9542 Y30.2617 Z-0.2217
N4525 X30.9556 Y30.2641 Z-0.2266
N4530 X30.9573 Y30.2668 Z-0.2312
N4535 X30.9592 Y30.27 Z-0.2354
N4540 X30.9613 Y30.2736 Z-0.2391
N4545 X30.9637 Y30.2775 Z-0.2423
N4550 X30.9663 Y30.2817 Z-0.245
N4555 X30.9689 Y30.2862 Z-0.2472
N4560 X30.9717 Y30.2908 Z-0.2487
N4565 X30.9746 Y30.2955 Z-0.2497
N4570 X30.9775 Y30.3003 Z-0.25
N4575 X31.0033 Y30.3431
N4580 G3 X30.9864 Y30.4117 I-0.0428 J0.0259
N4585 G2 X30.8657 Y30.6257 I0.1293 J0.214 F30
N4590 G1 Y35.1257
N4595 G2 X31.1157 Y35.3757 I0.25
N4600 G1 X37.8657
N4605 G2 X38.1157 Y35.1257 J-0.25
N4610 G1 Y30.6257
N4615 G2 X37.8657 Y30.3757 I-0.25
N4620 G1 X31.1157
N4625 G2 X30.9864 Y30.4117 J0.25
N4630 G3 X30.9178 Y30.3948 I-0.0259 J-0.0428
N4635 G1 X30.8919 Y30.352
N4640 X30.889 Y30.3472 Z-0.2497
N4645 X30.8861 Y30.3425 Z-0.2487
N4650 X30.8833 Y30.3379 Z-0.2472
N4655 X30.8807 Y30.3335 Z-0.245
N4660 X30.8781 Y30.3293 Z-0.2423
N4665 X30.8758 Y30.3253 Z-0.2391
N4670 X30.8736 Y30.3218 Z-0.2354
N4675 X30.8717 Y30.3186 Z-0.2312
N4680 X30.87 Y30.3158 Z-0.2266
N4685 X30.8686 Y30.3135 Z-0.2217
N4690 X30.8675 Y30.3116 Z-0.2165
N4695 X30.8667 Y30.3103 Z-0.2111
N4700 X30.8662 Y30.3095 Z-0.2056
N4705 X30.866 Y30.3092 Z-0.2
N4710 X30.9516 Y30.2575
N4715 Z-0.45 F15
N4720 X30.9518 Y30.2578 Z-0.4556
N4725 X30.9523 Y30.2586 Z-0.4611
N4730 X30.9531 Y30.2599 Z-0.4665
N4735 X30.9542 Y30.2617 Z-0.4717
N4740 X30.9556 Y30.2641 Z-0.4766
N4745 X30.9573 Y30.2668 Z-0.4812
N4750 X30.9592 Y30.27 Z-0.4854
N4755 X30.9613 Y30.2736 Z-0.4891
N4760 X30.9637 Y30.2775 Z-0.4923
N4765 X30.9663 Y30.2817 Z-0.495
N4770 X30.9689 Y30.2862 Z-0.4972
N4775 X30.9717 Y30.2908 Z-0.4987
N4780 X30.9746 Y30.2955 Z-0.4997
N4785 X30.9775 Y30.3003 Z-0.5
N4790 X31.0033 Y30.3431
N4795 G3 X30.9864 Y30.4117 I-0.0428 J0.0259
N4800 G2 X30.8657 Y30.6257 I0.1293 J0.214 F30
N4805 G1 Y35.1257
N4810 G2 X31.1157 Y35.3757 I0.25
N4815 G1 X37.8657
N4820 G2 X38.1157 Y35.1257 J-0.25
N4825 G1 Y30.6257
N4830 G2 X37.8657 Y30.3757 I-0.25
N4835 G1 X31.1157
N4840 G2 X30.9864 Y30.4117 J0.25
N4845 G3 X30.9178 Y30.3948 I-0.0259 J-0.0428
N4850 G1 X30.8919 Y30.352
N4855 X30.889 Y30.3472 Z-0.4997
N4860 X30.8861 Y30.3425 Z-0.4987
N4865 X30.8833 Y30.3379 Z-0.4972
N4870 X30.8807 Y30.3335 Z-0.495
N4875 X30.8781 Y30.3293 Z-0.4923
N4880 X30.8758 Y30.3253 Z-0.4891
N4885 X30.8736 Y30.3218 Z-0.4854
N4890 X30.8717 Y30.3186 Z-0.4812
N4895 X30.87 Y30.3158 Z-0.4766
N4900 X30.8686 Y30.3135 Z-0.4717
N4905 X30.8675 Y30.3116 Z-0.4665
N4910 X30.8667 Y30.3103 Z-0.4611
N4915 X30.8662 Y30.3095 Z-0.4556
N4920 X30.866 Y30.3092 Z-0.45
N4925 G0 Z0.2894
N4930 X40.1425 Y30.1119
N4935 G1 Z-0.2 F15
N4940 X40.1427 Y30.1121 Z-0.2056
N4945 X40.1434 Y30.1128 Z-0.2111
N4950 X40.1445 Y30.1139 Z-0.2165
N4955 X40.1461 Y30.1154 Z-0.2217
N4960 X40.148 Y30.1173 Z-0.2266
N4965 X40.1503 Y30.1195 Z-0.2312
N4970 X40.153 Y30.1221 Z-0.2354
N4975 X40.156 Y30.125 Z-0.2391
N4980 X40.1593 Y30.1282 Z-0.2423
N4985 X40.1628 Y30.1316 Z-0.245
N4990 X40.1666 Y30.1352 Z-0.2472
N4995 X40.1704 Y30.139 Z-0.2487
N5000 X40.1744 Y30.1428 Z-0.2497
N5005 X40.1784 Y30.1467 Z-0.25
N5010 X40.2143 Y30.1815
N5015 G3 X40.2154 Y30.2522 I-0.0348 J0.0359
N5020 G2 X40.1449 Y30.4263 I0.1795 J0.174 F30
N5025 G1 Y34.9263
N5030 G2 X40.3949 Y35.1763 I0.25
N5035 G1 X47.1449
N5040 G2 X47.3949 Y34.9263 J-0.25
N5045 G1 Y30.4263
N5050 G2 X47.1449 Y30.1763 I-0.25
N5055 G1 X40.3949
N5060 G2 X40.2154 Y30.2522 J0.25
N5065 G3 X40.1447 Y30.2533 I-0.0359 J-0.0348
N5070 G1 X40.1088 Y30.2185
N5075 X40.1048 Y30.2146 Z-0.2497
N5080 X40.1008 Y30.2108 Z-0.2487
N5085 X40.0969 Y30.207 Z-0.2472
N5090 X40.0932 Y30.2034 Z-0.245
N5095 X40.0897 Y30.2 Z-0.2423
N5100 X40.0864 Y30.1968 Z-0.2391
N5105 X40.0834 Y30.1939 Z-0.2354
N5110 X40.0807 Y30.1913 Z-0.2312
N5115 X40.0784 Y30.189 Z-0.2266
N5120 X40.0765 Y30.1872 Z-0.2217
N5125 X40.0749 Y30.1857 Z-0.2165
N5130 X40.0738 Y30.1846 Z-0.2111
N5135 X40.0731 Y30.1839 Z-0.2056
N5140 X40.0729 Y30.1837 Z-0.2
N5145 X40.1425 Y30.1119
N5150 Z-0.45 F15
N5155 X40.1427 Y30.1121 Z-0.4556
N5160 X40.1434 Y30.1128 Z-0.4611
N5165 X40.1445 Y30.1139 Z-0.4665
N5170 X40.1461 Y30.1154 Z-0.4717
N5175 X40.148 Y30.1173 Z-0.4766
N5180 X40.1503 Y30.1195 Z-0.4812
N5185 X40.153 Y30.1221 Z-0.4854
N5190 X40.156 Y30.125 Z-0.4891
N5195 X40.1593 Y30.1282 Z-0.4923
N5200 X40.1628 Y30.1316 Z-0.495
N5205 X40.1666 Y30.1352 Z-0.4972
N5210 X40.1704 Y30.139 Z-0.4987
N5215 X40.1744 Y30.1428 Z-0.4997
N5220 X40.1784 Y30.1467 Z-0.5
N5225 X40.2143 Y30.1815
N5230 G3 X40.2154 Y30.2522 I-0.0348 J0.0359
N5235 G2 X40.1449 Y30.4263 I0.1795 J0.174 F30
N5240 G1 Y34.9263
N5245 G2 X40.3949 Y35.1763 I0.25
N5250 G1 X47.1449
N5255 G2 X47.3949 Y34.9263 J-0.25
N5260 G1 Y30.4263
N5265 G2 X47.1449 Y30.1763 I-0.25
N5270 G1 X40.3949
N5275 G2 X40.2154 Y30.2522 J0.25
N5280 G3 X40.1447 Y30.2533 I-0.0359 J-0.0348
N5285 G1 X40.1088 Y30.2185
N5290 X40.1048 Y30.2146 Z-0.4997
N5295 X40.1008 Y30.2108 Z-0.4987
N5300 X40.0969 Y30.207 Z-0.4972
N5305 X40.0932 Y30.2034 Z-0.495
N5310 X40.0897 Y30.2 Z-0.4923
N5315 X40.0864 Y30.1968 Z-0.4891
N5320 X40.0834 Y30.1939 Z-0.4854
N5325 X40.0807 Y30.1913 Z-0.4812
N5330 X40.0784 Y30.189 Z-0.4766
N5335 X40.0765 Y30.1872 Z-0.4717
N5340 X40.0749 Y30.1857 Z-0.4665
N5345 X40.0738 Y30.1846 Z-0.4611
N5350 X40.0731 Y30.1839 Z-0.4556
N5355 X40.0729 Y30.1837 Z-0.45
N5360 G0 Z0.2894
N5365 X40.0446 Y27.9703
N5370 G1 Z-0.2 F15
N5375 X40.0449 Y27.97 Z-0.2056
N5380 X40.0455 Y27.9694 Z-0.2111
N5385 X40.0466 Y27.9683 Z-0.2165
N5390 X40.0481 Y27.9667 Z-0.2217
N5395 X40.05 Y27.9648 Z-0.2266
N5400 X40.0523 Y27.9625 Z-0.2312
N5405 X40.0549 Y27.9598 Z-0.2354
N5410 X40.0578 Y27.9568 Z-0.2391
N5415 X40.061 Y27.9536 Z-0.2423
N5420 X40.0645 Y27.9501 Z-0.245
N5425 X40.0681 Y27.9464 Z-0.2472
N5430 X40.0719 Y27.9425 Z-0.2487
N5435 X40.0758 Y27.9386 Z-0.2497
N5440 X40.0797 Y27.9346 Z-0.25
N5445 X40.1147 Y27.8989
N5450 G3 X40.1854 Y27.8983 I0.0357 J0.035
N5455 G2 X40.361 Y27.97 I0.1752 J-0.1783 F30
N5460 G1 X44.861 Y27.9631
N5465 G2 X45.1106 Y27.7127 I-0.0004 J-0.25
N5470 G1 X45.0925 Y15.7127
N5475 G2 X44.8421 Y15.4631 I-0.25 J0.0004
N5480 G1 X40.3421 Y15.47
N5485 G2 X40.0925 Y15.7204 I0.0004 J0.25
N5490 G1 X40.1106 Y27.7203
N5495 G2 X40.1854 Y27.8983 I0.25 J-0.0004
N5500 G3 X40.1861 Y27.969 I-0.035 J0.0357
N5505 G1 X40.151 Y28.0047
N5510 X40.1471 Y28.0087 Z-0.2497
N5515 X40.1432 Y28.0126 Z-0.2487
N5520 X40.1394 Y28.0165 Z-0.2472
N5525 X40.1358 Y28.0201 Z-0.245
N5530 X40.1324 Y28.0237 Z-0.2423
N5535 X40.1292 Y28.0269 Z-0.2391
N5540 X40.1262 Y28.0299 Z-0.2354
N5545 X40.1236 Y28.0326 Z-0.2312
N5550 X40.1213 Y28.0349 Z-0.2266
N5555 X40.1194 Y28.0368 Z-0.2217
N5560 X40.1179 Y28.0383 Z-0.2165
N5565 X40.1169 Y28.0394 Z-0.2111
N5570 X40.1162 Y28.0401 Z-0.2056
N5575 X40.116 Y28.0403 Z-0.2
N5580 X40.0446 Y27.9703
N5585 Z-0.45 F15
N5590 X40.0449 Y27.97 Z-0.4556
N5595 X40.0455 Y27.9694 Z-0.4611
N5600 X40.0466 Y27.9683 Z-0.4665
N5605 X40.0481 Y27.9667 Z-0.4717
N5610 X40.05 Y27.9648 Z-0.4766
N5615 X40.0523 Y27.9625 Z-0.4812
N5620 X40.0549 Y27.9598 Z-0.4854
N5625 X40.0578 Y27.9568 Z-0.4891
N5630 X40.061 Y27.9536 Z-0.4923
N5635 X40.0645 Y27.9501 Z-0.495
N5640 X40.0681 Y27.9464 Z-0.4972
N5645 X40.0719 Y27.9425 Z-0.4987
N5650 X40.0758 Y27.9386 Z-0.4997
N5655 X40.0797 Y27.9346 Z-0.5
N5660 X40.1147 Y27.8989
N5665 G3 X40.1854 Y27.8983 I0.0357 J0.035
N5670 G2 X40.361 Y27.97 I0.1752 J-0.1783 F30
N5675 G1 X44.861 Y27.9631
N5680 G2 X45.1106 Y27.7127 I-0.0004 J-0.25
N5685 G1 X45.0925 Y15.7127
N5690 G2 X44.8421 Y15.4631 I-0.25 J0.0004
N5695 G1 X40.3421 Y15.47
N5700 G2 X40.0925 Y15.7204 I0.0004 J0.25
N5705 G1 X40.1106 Y27.7203
N5710 G2 X40.1854 Y27.8983 I0.25 J-0.0004
N5715 G3 X40.1861 Y27.969 I-0.035 J0.0357
N5720 G1 X40.151 Y28.0047
N5725 X40.1471 Y28.0087 Z-0.4997
N5730 X40.1432 Y28.0126 Z-0.4987
N5735 X40.1394 Y28.0165 Z-0.4972
N5740 X40.1358 Y28.0201 Z-0.495
N5745 X40.1324 Y28.0237 Z-0.4923
N5750 X40.1292 Y28.0269 Z-0.4891
N5755 X40.1262 Y28.0299 Z-0.4854
N5760 X40.1236 Y28.0326 Z-0.4812
N5765 X40.1213 Y28.0349 Z-0.4766
N5770 X40.1194 Y28.0368 Z-0.4717
N5775 X40.1179 Y28.0383 Z-0.4665
N5780 X40.1169 Y28.0394 Z-0.4611
N5785 X40.1162 Y28.0401 Z-0.4556
N5790 X40.116 Y28.0403 Z-0.45
N5795 G0 Z0.2894
N5800 X39.8406 Y14.3024
N5805 G1 Z-0.2 F15
N5810 X39.8408 Y14.3022 Z-0.2056
N5815 X39.8416 Y14.3016 Z-0.2111
N5820 X39.8429 Y14.3007 Z-0.2165
N5825 X39.8446 Y14.2995 Z-0.2217
N5830 X39.8468 Y14.2979 Z-0.2266
N5835 X39.8494 Y14.296 Z-0.2312
N5840 X39.8524 Y14.2938 Z-0.2354
N5845 X39.8558 Y14.2913 Z-0.2391
N5850 X39.8595 Y14.2886 Z-0.2423
N5855 X39.8635 Y14.2858 Z-0.245
N5860 X39.8677 Y14.2827 Z-0.2472
N5865 X39.8721 Y14.2795 Z-0.2487
N5870 X39.8765 Y14.2763 Z-0.2497
N5875 X39.8811 Y14.273 Z-0.25
N5880 X39.9215 Y14.2436
N5885 G3 X39.9914 Y14.2547 I0.0294 J0.0405
N5890 G2 X40.1942 Y14.3579 I0.2023 J-0.1468 F30
N5895 G1 X44.6942 Y14.3492
N5900 G2 X44.9437 Y14.0987 I-0.0005 J-0.25
N5905 G1 X44.9209 Y2.0988
N5910 G2 X44.6704 Y1.8492 I-0.25 J0.0005
N5915 G1 X40.1704 Y1.8579
N5920 G2 X39.9209 Y2.1084 I0.0005 J0.25
N5925 G1 X39.9437 Y14.1084
N5930 G2 X39.9914 Y14.2547 I0.25 J-0.0005
N5935 G3 X39.9803 Y14.3246 I-0.0405 J0.0294
N5940 G1 X39.9398 Y14.3539
N5945 X39.9353 Y14.3572 Z-0.2497
N5950 X39.9308 Y14.3605 Z-0.2487
N5955 X39.9264 Y14.3636 Z-0.2472
N5960 X39.9222 Y14.3667 Z-0.245
N5965 X39.9183 Y14.3696 Z-0.2423
N5970 X39.9146 Y14.3723 Z-0.2391
N5975 X39.9112 Y14.3747 Z-0.2354
N5980 X39.9082 Y14.3769 Z-0.2312
N5985 X39.9055 Y14.3788 Z-0.2266
N5990 X39.9033 Y14.3804 Z-0.2217
N5995 X39.9016 Y14.3817 Z-0.2165
N6000 X39.9003 Y14.3826 Z-0.2111
N6005 X39.8996 Y14.3831 Z-0.2056
N6010 X39.8993 Y14.3833 Z-0.2
N6015 X39.8406 Y14.3024
N6020 Z-0.45 F15
N6025 X39.8408 Y14.3022 Z-0.4556
N6030 X39.8416 Y14.3016 Z-0.4611
N6035 X39.8429 Y14.3007 Z-0.4665
N6040 X39.8446 Y14.2995 Z-0.4717
N6045 X39.8468 Y14.2979 Z-0.4766
N6050 X39.8494 Y14.296 Z-0.4812
N6055 X39.8524 Y14.2938 Z-0.4854
N6060 X39.8558 Y14.2913 Z-0.4891
N6065 X39.8595 Y14.2886 Z-0.4923
N6070 X39.8635 Y14.2858 Z-0.495
N6075 X39.8677 Y14.2827 Z-0.4972
N6080 X39.8721 Y14.2795 Z-0.4987
N6085 X39.8765 Y14.2763 Z-0.4997
N6090 X39.8811 Y14.273 Z-0.5
N6095 X39.9215 Y14.2436
N6100 G3 X39.9914 Y14.2547 I0.0294 J0.0405
N6105 G2 X40.1942 Y14.3579 I0.2023 J-0.1468 F30
N6110 G1 X44.6942 Y14.3492
N6115 G2 X44.9437 Y14.0987 I-0.0005 J-0.25
N6120 G1 X44.9209 Y2.0988
N6125 G2 X44.6704 Y1.8492 I-0.25 J0.0005
N6130 G1 X40.1704 Y1.8579
N6135 G2 X39.9209 Y2.1084 I0.0005 J0.25
N6140 G1 X39.9437 Y14.1084
N6145 G2 X39.9914 Y14.2547 I0.25 J-0.0005
N6150 G3 X39.9803 Y14.3246 I-0.0405 J0.0294
N6155 G1 X39.9398 Y14.3539
N6160 X39.9353 Y14.3572 Z-0.4997
N6165 X39.9308 Y14.3605 Z-0.4987
N6170 X39.9264 Y14.3636 Z-0.4972
N6175 X39.9222 Y14.3667 Z-0.495
N6180 X39.9183 Y14.3696 Z-0.4923
N6185 X39.9146 Y14.3723 Z-0.4891
N6190 X39.9112 Y14.3747 Z-0.4854
N6195 X39.9082 Y14.3769 Z-0.4812
N6200 X39.9055 Y14.3788 Z-0.4766
N6205 X39.9033 Y14.3804 Z-0.4717
N6210 X39.9016 Y14.3817 Z-0.4665
N6215 X39.9003 Y14.3826 Z-0.4611
N6220 X39.8996 Y14.3831 Z-0.4556
N6225 X39.8993 Y14.3833 Z-0.45
N6230 G0 Z0.2894
N6235 X37.8064 Y13.4933
N6240 G1 Z-0.2 F15
N6245 X37.8062 Y13.4931 Z-0.2056
N6250 X37.8057 Y13.4923 Z-0.2111
N6255 X37.8048 Y13.491 Z-0.2165
N6260 X37.8036 Y13.4893 Z-0.2217
N6265 X37.8021 Y13.487 Z-0.2266
N6270 X37.8002 Y13.4843 Z-0.2312
N6275 X37.7981 Y13.4812 Z-0.2354
N6280 X37.7958 Y13.4778 Z-0.2391
N6285 X37.7932 Y13.474 Z-0.2423
N6290 X37.7904 Y13.47 Z-0.245
N6295 X37.7875 Y13.4657 Z-0.2472
N6300 X37.7845 Y13.4612 Z-0.2487
N6305 X37.7813 Y13.4567 Z-0.2497
N6310 X37.7782 Y13.452 Z-0.25
N6315 X37.75 Y13.4108
N6320 G3 X37.7631 Y13.3413 I0.0413 J-0.0282
N6325 G2 X37.8721 Y13.1348 I-0.141 J-0.2065 F30
N6330 G1 Y8.6348
N6335 G2 X37.6221 Y8.3848 I-0.25
N6340 G1 X2.1221
N6345 G2 X1.8721 Y8.6348 J0.25
N6350 G1 Y13.1348
N6355 G2 X2.1221 Y13.3848 I0.25
N6360 G1 X37.6221
N6365 G2 X37.7631 Y13.3413 J-0.25
N6370 G3 X37.8326 Y13.3544 I0.0282 J0.0413
N6375 G1 X37.8608 Y13.3957
N6380 X37.8639 Y13.4003 Z-0.2497
N6385 X37.867 Y13.4049 Z-0.2487
N6390 X37.8701 Y13.4093 Z-0.2472
N6395 X37.873 Y13.4136 Z-0.245
N6400 X37.8758 Y13.4176 Z-0.2423
N6405 X37.8784 Y13.4214 Z-0.2391
N6410 X37.8807 Y13.4249 Z-0.2354
N6415 X37.8828 Y13.4279 Z-0.2312
N6420 X37.8846 Y13.4306 Z-0.2266
N6425 X37.8862 Y13.4329 Z-0.2217
N6430 X37.8874 Y13.4346 Z-0.2165
N6435 X37.8883 Y13.4359 Z-0.2111
N6440 X37.8888 Y13.4367 Z-0.2056
N6445 X37.889 Y13.437 Z-0.2
N6450 X37.5721 Y13.5348
N6455 Z-0.45 F15
N6460 G19 G2 Y13.4848 Z-0.5 J-0.05
N6465 G1 Y13.4348
N6470 G17 G3 X37.6221 Y13.3848 I0.05
N6475 G2 X37.8721 Y13.1348 J-0.25 F30
N6480 G1 Y8.6348
N6485 G2 X37.6221 Y8.3848 I-0.25
N6490 G1 X2.1221
N6495 G2 X1.8721 Y8.6348 J0.25
N6500 G1 Y13.1348
N6505 G2 X2.1221 Y13.3848 I0.25
N6510 G1 X37.6221
N6515 G3 X37.6721 Y13.4348 J0.05
N6520 G1 Y13.4848
N6525 G19 G3 Y13.5348 Z-0.45 K0.05
N6530 G0 Z0.2894
N6535 X38.0684 Y1.8911
N6540 G1 Z-0.2 F15
N6545 G3 Y1.9411 Z-0.25 J0.05
N6550 G1 Y1.9911
N6555 G17 G3 X38.0184 Y2.0411 I-0.05
N6560 G1 X2.5184 F30
N6565 G2 X2.2684 Y2.2911 J0.25
N6570 G1 Y6.7911
N6575 G2 X2.5184 Y7.0411 I0.25
N6580 G1 X38.0184
N6585 G2 X38.2684 Y6.7911 J-0.25
N6590 G1 Y2.2911
N6595 G2 X38.0184 Y2.0411 I-0.25
N6600 G3 X37.9684 Y1.9911 J-0.05
N6605 G1 Y1.9411
N6610 G19 G2 Y1.8911 Z-0.2 K0.05
N6615 G1 X38.0684
N6620 Z-0.45 F15
N6625 G3 Y1.9411 Z-0.5 J0.05
N6630 G1 Y1.9911
N6635 G17 G3 X38.0184 Y2.0411 I-0.05
N6640 G1 X2.5184 F30
N6645 G2 X2.2684 Y2.2911 J0.25
N6650 G1 Y6.7911
N6655 G2 X2.5184 Y7.0411 I0.25
N6660 G1 X38.0184
N6665 G2 X38.2684 Y6.7911 J-0.25
N6670 G1 Y2.2911
N6675 G2 X38.0184 Y2.0411 I-0.25
N6680 G3 X37.9684 Y1.9911 J-0.05
N6685 G1 Y1.9411
N6690 G19 G2 Y1.8911 Z-0.45 K0.05
N6695 G0 Z0.2894
N6700 X14.4468 Y30.2611
N6705 G1 Z-0.2 F15
N6710 X14.4465 Y30.2612 Z-0.2056
N6715 X14.4457 Y30.2616 Z-0.2111
N6720 X14.4443 Y30.2623 Z-0.2165
N6725 X14.4424 Y30.2632 Z-0.2217
N6730 X14.4399 Y30.2644 Z-0.2266
N6735 X14.437 Y30.2659 Z-0.2312
N6740 X14.4337 Y30.2675 Z-0.2354
N6745 X14.4299 Y30.2694 Z-0.2391
N6750 X14.4258 Y30.2714 Z-0.2423
N6755 X14.4214 Y30.2735 Z-0.245
N6760 X14.4168 Y30.2758 Z-0.2472
N6765 X14.4119 Y30.2782 Z-0.2487
N6770 X14.407 Y30.2806 Z-0.2497
N6775 X14.4019 Y30.2831 Z-0.25
N6780 X14.357 Y30.3051
N6785 G17 G3 X14.2901 Y30.2823 I-0.022 J-0.0449
N6790 G2 X14.0657 Y30.1424 I-0.2244 J0.1102 F30
N6795 G1 X1.8157
N6800 G2 X1.5657 Y30.3924 J0.25
N6805 G1 Y34.8924
N6810 G2 X1.8157 Y35.1424 I0.25
N6815 G1 X14.0657
N6820 G2 X14.3157 Y34.8924 J-0.25
N6825 G1 Y30.3924
N6830 G2 X14.2901 Y30.2823 I-0.25
N6835 G3 X14.313 Y30.2154 I0.0449 J-0.022
N6840 G1 X14.3579 Y30.1933
N6845 X14.3629 Y30.1909 Z-0.2497
N6850 X14.3678 Y30.1884 Z-0.2487
N6855 X14.3727 Y30.186 Z-0.2472
N6860 X14.3773 Y30.1838 Z-0.245
N6865 X14.3817 Y30.1816 Z-0.2423
N6870 X14.3858 Y30.1796 Z-0.2391
N6875 X14.3896 Y30.1777 Z-0.2354
N6880 X14.393 Y30.1761 Z-0.2312
N6885 X14.3959 Y30.1747 Z-0.2266
N6890 X14.3983 Y30.1735 Z-0.2217
N6895 X14.4002 Y30.1725 Z-0.2165
N6900 X14.4016 Y30.1718 Z-0.2111
N6905 X14.4025 Y30.1714 Z-0.2056
N6910 X14.4027 Y30.1713 Z-0.2
N6915 X14.4468 Y30.2611
N6920 Z-0.45 F15
N6925 X14.4465 Y30.2612 Z-0.4556
N6930 X14.4457 Y30.2616 Z-0.4611
N6935 X14.4443 Y30.2623 Z-0.4665
N6940 X14.4424 Y30.2632 Z-0.4717
N6945 X14.4399 Y30.2644 Z-0.4766
N6950 X14.437 Y30.2659 Z-0.4812
N6955 X14.4337 Y30.2675 Z-0.4854
N6960 X14.4299 Y30.2694 Z-0.4891
N6965 X14.4258 Y30.2714 Z-0.4923
N6970 X14.4214 Y30.2735 Z-0.495
N6975 X14.4168 Y30.2758 Z-0.4972
N6980 X14.4119 Y30.2782 Z-0.4987
N6985 X14.407 Y30.2806 Z-0.4997
N6990 X14.4019 Y30.2831 Z-0.5
N6995 X14.357 Y30.3051
N7000 G3 X14.2901 Y30.2823 I-0.022 J-0.0449
N7005 G2 X14.0657 Y30.1424 I-0.2244 J0.1102 F30
N7010 G1 X1.8157
N7015 G2 X1.5657 Y30.3924 J0.25
N7020 G1 Y34.8924
N7025 G2 X1.8157 Y35.1424 I0.25
N7030 G1 X14.0657
N7035 G2 X14.3157 Y34.8924 J-0.25
N7040 G1 Y30.3924
N7045 G2 X14.2901 Y30.2823 I-0.25
N7050 G3 X14.313 Y30.2154 I0.0449 J-0.022
N7055 G1 X14.3579 Y30.1933
N7060 X14.3629 Y30.1909 Z-0.4997
N7065 X14.3678 Y30.1884 Z-0.4987
N7070 X14.3727 Y30.186 Z-0.4972
N7075 X14.3773 Y30.1838 Z-0.495
N7080 X14.3817 Y30.1816 Z-0.4923
N7085 X14.3858 Y30.1796 Z-0.4891
N7090 X14.3896 Y30.1777 Z-0.4854
N7095 X14.393 Y30.1761 Z-0.4812
N7100 X14.3959 Y30.1747 Z-0.4766
N7105 X14.3983 Y30.1735 Z-0.4717
N7110 X14.4002 Y30.1725 Z-0.4665
N7115 X14.4016 Y30.1718 Z-0.4611
N7120 X14.4025 Y30.1714 Z-0.4556
N7125 X14.4027 Y30.1713 Z-0.45
N7130 G0 Z0.6
N7140 M9
N7145 G28 G91 Z0
N7150 G28 X0 Y0
N7155 M30
%
