%
(2D Contour3)
(T3  D=0.5 CR=0 - ZMIN=-0.375 - flat end mill)
N10 G90 G94
N15 G17
N20 G20
N25 G28 G91 Z0
N30 G90

(2D Contour3)
N35 M9
N40 T3 M6
N45 S3000 M3
N50 G54
N55 M8
N65 G0 X-0.0239 Y1.75
N70 G43 Z0.6 H3
N75 Z0.2394
N80 G1 Z-0.2 F15
N85 X4 F30
N90 G0 Z0.2394
N95 X-0.0239 Y2.75
N100 G1 Z-0.2 F15
N105 X4 F30
N110 G0 Z0.2
N115 X-0.0239
N120 G1 Z0.0394 F15
N125 Z-0.375
N130 X4 F30
N135 G0 Z0.2
N140 X-0.0239 Y1.75
N145 G1 Z0.0394 F15
N150 Z-0.375
N155 X4 F30
N160 G0 Z0.2394
N165 X-0.0239 Y0.75
N170 G1 Z-0.2 F15
N175 X4 F30
N180 G0 Z0.2
N185 X-0.0239
N190 G1 Z0.0394 F15
N195 Z-0.375
N200 X4 F30
N205 G0 Z0.6
N215 M9
N220 G28 G91 Z0
N225 G28 X0 Y0
N230 M30
%
