%
(FlipTest)
(T3  D=0.5 CR=0 - ZMIN=-0.75 - flat end mill)
N10 G90 G94
N15 G17
N20 G20
N25 G28 G91 Z0
N30 G90

(2D Contour1)
N35 M9
N40 T3 M6
N45 S3000 M3
N50 G54
N55 M8
N65 G0 X1.75 Y4
N70 G43 Z0.6 H3
N75 Z0.2394
N80 G1 Z-0.2 F15
N85 Y0 F30
N90 G0 Z0.2394
N95 X2.75 Y4
N100 G1 Z-0.2 F15
N105 Y0 F30
N110 G0 Z0.2
N115 Y4
N120 G1 Z0.0394 F15
N125 Z-0.375
N130 Y0 F30
N135 G0 Z0.2
N140 X1.75 Y4
N145 G1 Z0.0394 F15
N150 Z-0.375
N155 Y0 F30
N160 G0 Z0.2394
N165 X0.75 Y4
N170 G1 Z-0.2 F15
N175 Y0 F30
N180 G0 Z0.2
N185 Y4
N190 G1 Z0.0394 F15
N195 Z-0.375
N200 Y0 F30
N205 G0 Z0.6

(2D Contour2)
N215 M8
N220 X4.25 Y2
N225 Z0.6
N230 Z0.2394
N235 G1 Z-0.2 F15
N240 Y0 F30
N245 G2 X4 Y-0.25 I-0.25
N250 G1 X0
N255 G2 X-0.25 Y0 J0.25
N260 G1 Y4
N265 G2 X0 Y4.25 I0.25
N270 G1 X4
N275 G2 X4.25 Y4 J-0.25
N280 G1 Y2
N285 Z-0.4 F15
N290 Y0 F30
N295 G2 X4 Y-0.25 I-0.25
N300 G1 X0
N305 G2 X-0.25 Y0 J0.25
N310 G1 Y4
N315 G2 X0 Y4.25 I0.25
N320 G1 X4
N325 G2 X4.25 Y4 J-0.25
N330 G1 Y2
N335 Z-0.6 F15
N340 Y0 F30
N345 G2 X4 Y-0.25 I-0.25
N350 G1 X0
N355 G2 X-0.25 Y0 J0.25
N360 G1 Y4
N365 G2 X0 Y4.25 I0.25
N370 G1 X4
N375 G2 X4.25 Y4 J-0.25
N380 G1 Y2
N385 Z-0.75 F15
N390 Y0 F30
N395 G2 X4 Y-0.25 I-0.25
N400 G1 X0
N405 G2 X-0.25 Y0 J0.25
N410 G1 Y4
N415 G2 X0 Y4.25 I0.25
N420 G1 X4
N425 G2 X4.25 Y4 J-0.25
N430 G1 Y2
N435 G0 Z0.6
N445 M9
N450 G28 G91 Z0
N455 G28 X0 Y0
N460 M30
%
